foxglove/tutorials/lafan1/joints_labeled.csv
Frame,X,Y,Z,QX,QY,QZ,QW,left_hip_pitch_joint,left_hip_roll_joint,left_hip_yaw_joint,left_knee_joint,left_ankle_pitch_joint,left_ankle_roll_joint,right_hip_pitch_joint,right_hip_roll_joint,right_hip_yaw_joint,right_knee_joint,right_ankle_pitch_joint,right_ankle_roll_joint,waist_yaw_joint,waist_roll_joint,waist_pitch_joint,left_shoulder_pitch_joint,left_shoulder_roll_joint,left_shoulder_yaw_joint,left_elbow_joint,left_wrist_roll_joint,left_wrist_pitch_joint,left_wrist_yaw_joint,right_shoulder_pitch_joint,right_shoulder_roll_joint,right_shoulder_yaw_joint,right_elbow_joint,right_wrist_roll_joint,right_wrist_pitch_joint,right_wrist_yaw_joint
0,0.000098,-0.000161,0.799087,0.004109,0.002375,0.021641,0.999755,-0.004409,0.060532,0.166431,0.176276,-0.097473,-0.023962,0.040313,-0.119414,-0.385817,0.206674,-0.180823,0.039829,0.016061,-0.006092,0.001142,-0.068885,1.474532,-0.172469,1.220329,0.281551,0.229778,0.19613,0.063265,-1.454644,0.000167,1.374207,-0.017476,0.069432,-0.162874
1,-0.000335,-0.000131,0.79921,0.007093,-0.006311,0.023914,0.999669,0.02258,0.055132,0.170017,0.154695,-0.087593,-0.025523,0.068572,-0.128489,-0.405084,0.191232,-0.177135,0.045392,0.011406,-0.011419,0.017212,-0.123204,1.413082,-0.163013,1.111023,0.375086,0.378047,0.181134,0.106936,-1.415889,-0.045866,1.2756,-0.031492,0.150529,-0.206176
2,-0.000799,-0.000019,0.799261,0.009208,-0.013241,0.024876,0.99956,0.039094,0.050337,0.169404,0.149267,-0.084507,-0.025314,0.084919,-0.133349,-0.408766,0.187169,-0.174972,0.046738,0.007133,-0.015489,0.030049,-0.139914,1.382011,-0.132149,1.046472,0.448907,0.452373,0.151249,0.144295,-1.395998,-0.102097,1.201817,-0.060916,0.210389,-0.226788
3,-0.001233,0.000126,0.799263,0.010712,-0.018414,0.025211,0.999455,0.050271,0.046889,0.169126,0.147973,-0.083756,-0.02488,0.095584,-0.136637,-0.409506,0.185973,-0.173811,0.047213,0.003945,-0.018441,0.039439,-0.137805,1.364064,-0.089162,1.010012,0.510649,0.477448,0.122529,0.175918,-1.378939,-0.167451,1.144465,-0.099014,0.254333,-0.236735
4,-0.001658,0.000292,0.799255,0.011758,-0.022224,0.024945,0.999373,0.058253,0.044568,0.169799,0.147597,-0.083552,-0.024508,0.102611,-0.138919,-0.408924,0.185652,-0.172943,0.047411,0.001692,-0.020525,0.046138,-0.128029,1.350911,-0.041547,0.9886,0.566193,0.481991,0.097591,0.20219,-1.359902,-0.239166,1.096634,-0.141136,0.287804,-0.239115
5,-0.002059,0.000473,0.799249,0.012475,-0.024945,0.024235,0.999317,0.063925,0.043062,0.171261,0.147522,-0.08352,-0.024197,0.107037,-0.140493,-0.40744,0.185728,-0.172214,0.047456,0.000169,-0.021925,0.050869,-0.115165,1.338976,0.005806,0.971807,0.617879,0.481813,0.075453,0.224147,-1.338715,-0.311914,1.054229,-0.186531,0.314307,-0.232542
6,-0.002433,0.000652,0.799247,0.012944,-0.026824,0.023261,0.999286,0.067795,0.042172,0.173197,0.147647,-0.083579,-0.023958,0.10959,-0.141526,-0.405434,0.186009,-0.17161,0.047416,-0.000834,-0.022793,0.054237,-0.101334,1.327442,0.052325,0.956468,0.665409,0.480432,0.056591,0.242993,-1.316891,-0.379979,1.015794,-0.235948,0.335463,-0.215801
7,-0.002778,0.000819,0.799252,0.013229,-0.028002,0.022204,0.999274,0.070146,0.04173,0.175284,0.147913,-0.083669,-0.023789,0.110786,-0.142112,-0.403264,0.186223,-0.171041,0.04731,-0.00149,-0.023254,0.056758,-0.087925,1.316233,0.098824,0.942753,0.708049,0.479066,0.040959,0.258862,-1.295785,-0.441692,0.980459,-0.289006,0.350638,-0.197039
8,-0.003107,0.000977,0.799267,0.013387,-0.02865,0.021167,0.999276,0.071318,0.041563,0.177317,0.148248,-0.08372,-0.023647,0.111051,-0.142383,-0.401149,0.186224,-0.170388,0.047163,-0.001925,-0.023406,0.058757,-0.07487,1.305339,0.144371,0.930231,0.746517,0.477597,0.028785,0.271457,-1.274901,-0.497821,0.94826,-0.342278,0.360156,-0.179928
9,-0.003433,0.001134,0.799288,0.01344,-0.028964,0.020292,0.999284,0.071621,0.04156,0.179035,0.148678,-0.083702,-0.023487,0.110752,-0.142455,-0.399348,0.186102,-0.169699,0.047015,-0.002203,-0.023354,0.060346,-0.062427,1.294701,0.187521,0.918739,0.781771,0.476074,0.019346,0.281037,-1.254355,-0.548414,0.92009,-0.393023,0.365629,-0.163107
10,-0.003748,0.0013,0.799315,0.013452,-0.029034,0.019693,0.999294,0.071337,0.04151,0.180264,0.148999,-0.083521,-0.023263,0.110101,-0.142556,-0.398047,0.186033,-0.16907,0.046928,-0.002383,-0.023178,0.061608,-0.051223,1.284442,0.226602,0.908257,0.814932,0.474854,0.011019,0.288024,-1.234961,-0.593803,0.896629,-0.4395,0.368298,-0.146032
11,-0.004031,0.001471,0.799345,0.013506,-0.028922,0.019263,0.999305,0.07078,0.041267,0.181183,0.149036,-0.083165,-0.022987,0.109225,-0.142825,-0.397084,0.186018,-0.168527,0.046913,-0.002586,-0.022879,0.062587,-0.041541,1.274608,0.260966,0.899081,0.846356,0.473713,0.002417,0.292295,-1.217417,-0.63449,0.877776,-0.480398,0.368623,-0.12851
12,-0.004279,0.001655,0.799374,0.013566,-0.028696,0.018992,0.999316,0.070124,0.040892,0.181819,0.148776,-0.082668,-0.022663,0.108217,-0.143206,-0.396427,0.186061,-0.168093,0.046981,-0.002826,-0.022534,0.063339,-0.033584,1.26562,0.290421,0.891286,0.876498,0.472818,-0.007193,0.294096,-1.201867,-0.671048,0.862801,-0.515201,0.366617,-0.110941
13,-0.004486,0.001848,0.799401,0.013641,-0.02842,0.018848,0.999325,0.069384,0.040416,0.182225,0.148507,-0.082188,-0.022307,0.107234,-0.143687,-0.396012,0.186141,-0.167732,0.047109,-0.003129,-0.022173,0.063919,-0.027425,1.257574,0.315672,0.884515,0.905439,0.472216,-0.016998,0.294659,-1.188847,-0.702859,0.850939,-0.545702,0.363073,-0.095434
14,-0.00465,0.002041,0.799422,0.013736,-0.028148,0.018764,0.999333,0.06859,0.039887,0.182508,0.148468,-0.081871,-0.021945,0.106349,-0.144245,-0.395717,0.186257,-0.167448,0.047276,-0.003528,-0.021808,0.064379,-0.02248,1.250636,0.336682,0.878817,0.933976,0.471615,-0.026084,0.29441,-1.178133,-0.729848,0.841318,-0.572683,0.358338,-0.083344
15,-0.004772,0.002225,0.799435,0.01387,-0.027935,0.01871,0.999338,0.067945,0.039284,0.182731,0.14851,-0.081673,-0.021592,0.105627,-0.144902,-0.395482,0.186468,-0.167278,0.047461,-0.004012,-0.021439,0.064731,-0.01869,1.244402,0.354091,0.874619,0.9614,0.470518,-0.036798,0.293353,-1.169143,-0.752637,0.833386,-0.595756,0.352609,-0.074107
16,-0.004851,0.002386,0.799442,0.014031,-0.027801,0.018688,0.99934,0.067536,0.038668,0.18289,0.148558,-0.081555,-0.021291,0.105103,-0.145585,-0.395315,0.186762,-0.16722,0.047623,-0.004522,-0.02108,0.064984,-0.017448,1.237703,0.371719,0.870796,0.983561,0.468337,-0.048073,0.291855,-1.161847,-0.77137,0.827463,-0.615907,0.346915,-0.066438
17,-0.004892,0.002513,0.799441,0.014184,-0.027741,0.018715,0.999339,0.067289,0.038134,0.182933,0.148701,-0.08154,-0.021068,0.10477,-0.146204,-0.395263,0.18712,-0.167264,0.047724,-0.004992,-0.020741,0.06515,-0.018196,1.230363,0.390795,0.866667,0.998856,0.464353,-0.058966,0.289882,-1.155921,-0.786844,0.823283,-0.63339,0.34155,-0.05989
18,-0.004899,0.002612,0.799435,0.014289,-0.027763,0.018826,0.999335,0.067223,0.037739,0.182807,0.1489,-0.081611,-0.020905,0.104605,-0.146716,-0.39537,0.187658,-0.167453,0.047777,-0.005338,-0.020475,0.06524,-0.019405,1.223531,0.409767,0.862695,1.009709,0.459638,-0.068775,0.287469,-1.150753,-0.800283,0.820437,-0.647969,0.336579,-0.054791
19,-0.004877,0.002681,0.799422,0.014362,-0.027943,0.018934,0.999327,0.06754,0.037463,0.182638,0.149065,-0.081737,-0.020807,0.10481,-0.147105,-0.395524,0.188201,-0.167724,0.047771,-0.005599,-0.02029,0.06527,-0.019492,1.218067,0.425867,0.858828,1.019776,0.454113,-0.076329,0.284979,-1.146122,-0.811919,0.818663,-0.659881,0.331908,-0.050606
20,-0.004826,0.002722,0.799408,0.014439,-0.028133,0.019047,0.999318,0.068009,0.037208,0.182455,0.149046,-0.081828,-0.020751,0.105084,-0.147464,-0.395698,0.188784,-0.168066,0.047705,-0.005788,-0.020157,0.065301,-0.018268,1.213986,0.437986,0.855706,1.030554,0.447511,-0.081796,0.282716,-1.142085,-0.821469,0.817727,-0.669928,0.327639,-0.046412
21,-0.004758,0.002736,0.799392,0.014498,-0.028306,0.019186,0.99931,0.068468,0.037014,0.182212,0.148973,-0.08193,-0.020731,0.105415,-0.147731,-0.395941,0.189268,-0.1684,0.04759,-0.005908,-0.020071,0.065316,-0.016971,1.210926,0.447613,0.854023,1.041314,0.4401,-0.087058,0.281053,-1.138824,-0.828668,0.817522,-0.679219,0.323763,-0.041169
22,-0.004679,0.002723,0.799378,0.014543,-0.028467,0.01934,0.999302,0.068915,0.036892,0.181925,0.148946,-0.082043,-0.020743,0.105808,-0.147904,-0.396234,0.189622,-0.168698,0.047454,-0.005983,-0.020027,0.065317,-0.016765,1.208134,0.456909,0.852995,1.050603,0.433109,-0.091051,0.280012,-1.136547,-0.834154,0.817801,-0.688345,0.320385,-0.035161
23,-0.0046,0.002679,0.799365,0.014567,-0.028609,0.019488,0.999295,0.069275,0.036898,0.181634,0.149092,-0.082201,-0.020821,0.106191,-0.147953,-0.39654,0.189899,-0.168974,0.047295,-0.006043,-0.020033,0.065347,-0.017606,1.205407,0.466971,0.852509,1.058118,0.427254,-0.092787,0.279513,-1.135101,-0.838446,0.818385,-0.697611,0.317196,-0.029046
24,-0.004539,0.002591,0.799353,0.01458,-0.028744,0.019615,0.999288,0.06954,0.037063,0.181334,0.149272,-0.08239,-0.020931,0.106566,-0.147816,-0.396829,0.190047,-0.169191,0.047112,-0.006094,-0.020083,0.06545,-0.018739,1.202813,0.476435,0.852264,1.064394,0.42363,-0.093978,0.278912,-1.133973,-0.842495,0.819095,-0.706196,0.314148,-0.023812
25,-0.004501,0.002472,0.799341,0.014595,-0.028858,0.019709,0.999283,0.069704,0.037328,0.181155,0.149492,-0.08257,-0.021056,0.106837,-0.147602,-0.397067,0.190188,-0.169381,0.046933,-0.006152,-0.020152,0.065634,-0.019735,1.200552,0.484761,0.851994,1.069735,0.420907,-0.095131,0.278134,-1.132988,-0.84635,0.820074,-0.71377,0.311657,-0.019503
26,-0.004485,0.002343,0.799333,0.014606,-0.028927,0.019801,0.999279,0.069784,0.03755,0.180932,0.1496,-0.082657,-0.02121,0.106942,-0.147423,-0.397284,0.190401,-0.169575,0.046772,-0.0062,-0.020218,0.065871,-0.020585,1.198649,0.492209,0.851631,1.074143,0.418702,-0.096094,0.27737,-1.132168,-0.849839,0.821265,-0.720351,0.309415,-0.015912
27,-0.004488,0.002204,0.799328,0.014609,-0.028958,0.019916,0.999275,0.069791,0.037724,0.180572,0.149585,-0.082638,-0.021384,0.106942,-0.147251,-0.39754,0.190626,-0.169758,0.046631,-0.006233,-0.02029,0.066141,-0.021209,1.197078,0.49889,0.851208,1.077807,0.417014,-0.096759,0.276593,-1.131545,-0.853124,0.822583,-0.72594,0.307207,-0.013131
28,-0.004508,0.002053,0.799328,0.0146,-0.028951,0.020076,0.999273,0.069713,0.037889,0.180134,0.149482,-0.082526,-0.021566,0.106885,-0.14706,-0.397888,0.190802,-0.1699,0.046517,-0.006254,-0.020373,0.066436,-0.021484,1.195886,0.504546,0.850816,1.081261,0.415849,-0.096993,0.275839,-1.131116,-0.856338,0.823934,-0.730587,0.305122,-0.011312
29,-0.004539,0.001891,0.799333,0.014583,-0.028906,0.020267,0.99927,0.06956,0.038067,0.179697,0.149304,-0.082335,-0.021749,0.106824,-0.146827,-0.398313,0.190809,-0.169906,0.046435,-0.006288,-0.020465,0.066756,-0.021202,1.195078,0.509239,0.850492,1.08468,0.414708,-0.096538,0.27508,-1.130747,-0.859656,0.825134,-0.734286,0.303179,-0.010608
30,-0.004574,0.00172,0.799342,0.014562,-0.028818,0.020487,0.999269,0.069352,0.038246,0.179215,0.149013,-0.082054,-0.021948,0.106798,-0.146543,-0.398816,0.190571,-0.169842,0.046412,-0.006331,-0.020556,0.067104,-0.020508,1.194559,0.513253,0.850337,1.087894,0.41334,-0.095666,0.274282,-1.130378,-0.86333,0.825974,-0.737171,0.301526,-0.011757
31,-0.004609,0.001548,0.79935,0.014532,-0.028708,0.020742,0.999267,0.069113,0.038417,0.178673,0.148664,-0.081719,-0.022164,0.10678,-0.146294,-0.399344,0.19025,-0.169796,0.046324,-0.006389,-0.020635,0.067487,-0.019498,1.194184,0.516689,0.850325,1.090823,0.411693,-0.09532,0.273242,-1.129803,-0.867595,0.826642,-0.738463,0.300036,-0.014139
32,-0.004641,0.00137,0.799355,0.014508,-0.028607,0.021022,0.999264,0.068772,0.038606,0.178079,0.148574,-0.081505,-0.022395,0.106707,-0.146068,-0.399917,0.190129,-0.169832,0.046246,-0.006448,-0.020706,0.067911,-0.018295,1.193745,0.519579,0.85044,1.09367,0.410028,-0.096586,0.272,-1.12905,-0.872355,0.827281,-0.737619,0.298376,-0.016709
33,-0.00467,0.00119,0.799355,0.014489,-0.02854,0.021281,0.999261,0.068442,0.038806,0.177514,0.148655,-0.081395,-0.022636,0.106575,-0.145876,-0.400436,0.190271,-0.17,0.046195,-0.006511,-0.020767,0.068351,-0.017521,1.1929,0.522823,0.850205,1.09597,0.408732,-0.097682,0.27141,-1.128513,-0.876477,0.828039,-0.736018,0.296846,-0.019015
34,-0.004696,0.001014,0.799349,0.014469,-0.028509,0.021509,0.999257,0.068139,0.039024,0.177004,0.148862,-0.081365,-0.022879,0.106427,-0.145726,-0.400898,0.190589,-0.170262,0.046123,-0.006574,-0.020826,0.068782,-0.017286,1.191503,0.526435,0.849683,1.097684,0.407828,-0.097288,0.271589,-1.128315,-0.879326,0.828934,-0.734511,0.295726,-0.02043
35,-0.004715,0.000843,0.79934,0.014449,-0.0285,0.021696,0.999254,0.067873,0.039261,0.17657,0.149137,-0.081388,-0.023125,0.10628,-0.145601,-0.401292,0.191006,-0.170592,0.046017,-0.006645,-0.020896,0.06919,-0.017301,1.189581,0.530033,0.84908,1.098975,0.407281,-0.09564,0.272057,-1.128393,-0.880926,0.829771,-0.73343,0.295301,-0.02108
36,-0.004729,0.000674,0.799328,0.01444,-0.02851,0.021841,0.999251,0.067648,0.039492,0.17622,0.149456,-0.081455,-0.023377,0.106125,-0.145515,-0.401599,0.191514,-0.17099,0.045857,-0.006734,-0.020975,0.069571,-0.017369,1.187471,0.533067,0.848406,1.100327,0.406976,-0.093032,0.272426,-1.128545,-0.881692,0.830275,-0.732807,0.295826,-0.021266
37,-0.004733,0.000502,0.799316,0.014452,-0.028533,0.021954,0.999247,0.067496,0.039714,0.175942,0.149757,-0.081536,-0.023634,0.106,-0.145414,-0.401857,0.192015,-0.171364,0.045684,-0.006831,-0.021059,0.069918,-0.0177,1.185221,0.535743,0.847777,1.101139,0.406356,-0.090518,0.272669,-1.128527,-0.881765,0.830047,-0.732722,0.296153,-0.021005
38,-0.004727,0.000327,0.799304,0.014475,-0.028559,0.022031,0.999244,0.0674,0.039944,0.175755,0.150046,-0.081633,-0.02389,0.105915,-0.14529,-0.402062,0.192467,-0.171698,0.045492,-0.006938,-0.021138,0.070239,-0.01803,1.183254,0.537486,0.8475,1.10197,0.405648,-0.089766,0.272575,-1.128232,-0.881607,0.829388,-0.732548,0.295989,-0.020832
39,-0.004712,0.000151,0.799294,0.014496,-0.028597,0.02209,0.999242,0.067353,0.040182,0.175574,0.150346,-0.081746,-0.024169,0.105911,-0.145142,-0.402251,0.192841,-0.171996,0.045271,-0.007046,-0.021213,0.070543,-0.018268,1.182083,0.538248,0.847411,1.103301,0.404771,-0.09076,0.27237,-1.127802,-0.881321,0.828666,-0.732207,0.295533,-0.020719
40,-0.004693,-0.000029,0.799284,0.014511,-0.028649,0.022132,0.999239,0.067346,0.040449,0.175406,0.150618,-0.081853,-0.024469,0.105964,-0.144945,-0.402399,0.193102,-0.172245,0.045017,-0.007162,-0.021285,0.070832,-0.018775,1.181493,0.538941,0.84718,1.104662,0.40404,-0.091875,0.271962,-1.127244,-0.881411,0.828098,-0.731289,0.295161,-0.021397
41,-0.004672,-0.000219,0.799276,0.014518,-0.028703,0.022151,0.999237,0.067381,0.040779,0.175283,0.150809,-0.081927,-0.024763,0.106051,-0.144677,-0.402504,0.193246,-0.17244,0.044733,-0.007293,-0.021355,0.071103,-0.01936,1.181234,0.539842,0.846813,1.105966,0.403655,-0.092338,0.271427,-1.126626,-0.88199,0.827998,-0.729743,0.295447,-0.022875
42,-0.004646,-0.000411,0.79927,0.014497,-0.028749,0.022148,0.999236,0.067462,0.041159,0.175213,0.150897,-0.081947,-0.025086,0.106153,-0.144328,-0.402564,0.193312,-0.172592,0.044428,-0.007442,-0.021423,0.071338,-0.019868,1.181127,0.540985,0.846349,1.107067,0.403488,-0.092184,0.270536,-1.125831,-0.883274,0.828384,-0.726996,0.296482,-0.024743
43,-0.004622,-0.000608,0.799266,0.014468,-0.028801,0.022123,0.999236,0.067585,0.041552,0.175187,0.150913,-0.081933,-0.025435,0.106238,-0.143944,-0.402587,0.193383,-0.172736,0.044114,-0.007597,-0.021479,0.071524,-0.020364,1.181108,0.542221,0.845811,1.107929,0.403429,-0.091607,0.269541,-1.124966,-0.88476,0.82888,-0.723454,0.29681,-0.027058
44,-0.0046,-0.000805,0.799261,0.014442,-0.028847,0.022087,0.999235,0.067703,0.041937,0.175193,0.150915,-0.081913,-0.025801,0.106235,-0.143572,-0.402537,0.193527,-0.172906,0.043778,-0.007736,-0.021515,0.071671,-0.020776,1.181193,0.543296,0.845322,1.10866,0.403368,-0.09115,0.26863,-1.124107,-0.886186,0.829356,-0.719824,0.297309,-0.030314
45,-0.004578,-0.001006,0.799254,0.014423,-0.028885,0.021996,0.999237,0.067801,0.042338,0.175294,0.150971,-0.08192,-0.026177,0.106115,-0.143229,-0.402421,0.19385,-0.173152,0.043433,-0.007871,-0.021529,0.071789,-0.02103,1.181461,0.544047,0.844955,1.109384,0.403044,-0.091226,0.267889,-1.123109,-0.88756,0.829603,-0.716255,0.297626,-0.034269
46,-0.004554,-0.001208,0.799244,0.014402,-0.028917,0.021866,0.999239,0.067857,0.042782,0.175464,0.151137,-0.081995,-0.026548,0.105915,-0.142897,-0.402202,0.194319,-0.173467,0.043075,-0.007999,-0.021534,0.071888,-0.021335,1.181739,0.544783,0.844542,1.10982,0.402382,-0.091391,0.267165,-1.122077,-0.888657,0.82956,-0.712868,0.297225,-0.03922
47,-0.004527,-0.001405,0.79923,0.014378,-0.028946,0.021709,0.999242,0.067836,0.043253,0.175681,0.151498,-0.082176,-0.026916,0.105652,-0.142578,-0.401914,0.194914,-0.173842,0.042715,-0.008112,-0.021529,0.071981,-0.021603,1.181992,0.545404,0.84411,1.110227,0.401746,-0.091006,0.266838,-1.12133,-0.888914,0.829475,-0.710453,0.296047,-0.044896
48,-0.004503,-0.001594,0.799212,0.014355,-0.028981,0.021532,0.999245,0.067728,0.043732,0.175926,0.152059,-0.082457,-0.027269,0.105334,-0.142296,-0.401586,0.19562,-0.174262,0.042355,-0.008209,-0.021516,0.072085,-0.021921,1.182105,0.545854,0.843759,1.110716,0.401118,-0.090103,0.266763,-1.120818,-0.888627,0.829465,-0.708917,0.294241,-0.051377
49,-0.004477,-0.001772,0.799193,0.014335,-0.029029,0.021374,0.999247,0.067584,0.044172,0.176093,0.152733,-0.082798,-0.027616,0.105035,-0.142049,-0.401284,0.196377,-0.174708,0.042027,-0.008279,-0.021492,0.072187,-0.022541,1.181899,0.546491,0.843312,1.110707,0.400304,-0.088996,0.266848,-1.120539,-0.887594,0.829697,-0.708243,0.292286,-0.057303
50,-0.004448,-0.001943,0.799172,0.014332,-0.029095,0.021239,0.999248,0.067459,0.044582,0.176267,0.153437,-0.083156,-0.027916,0.104787,-0.14184,-0.401027,0.197142,-0.175161,0.041739,-0.008335,-0.021458,0.072275,-0.023618,1.181406,0.547033,0.842666,1.11043,0.399511,-0.087418,0.266925,-1.120574,-0.885865,0.829952,-0.70838,0.291033,-0.062202
51,-0.004416,-0.002097,0.799152,0.014324,-0.029171,0.021145,0.999248,0.067387,0.044944,0.176381,0.154056,-0.083474,-0.02815,0.104608,-0.141679,-0.400845,0.197879,-0.175606,0.041485,-0.008377,-0.021423,0.072344,-0.024774,1.180827,0.547565,0.842025,1.110009,0.39879,-0.085182,0.267098,-1.120918,-0.883577,0.830089,-0.709238,0.289842,-0.065538
52,-0.00438,-0.002232,0.799134,0.014319,-0.02925,0.021102,0.999247,0.067429,0.045219,0.176496,0.154427,-0.083664,-0.02835,0.104495,-0.141597,-0.400744,0.198568,-0.176036,0.041257,-0.008416,-0.021385,0.072393,-0.025938,1.180338,0.547823,0.841616,1.109716,0.398357,-0.083377,0.267324,-1.121416,-0.881518,0.830256,-0.710389,0.288512,-0.067087
53,-0.004341,-0.002365,0.79912,0.014339,-0.02933,0.021093,0.999244,0.067594,0.045402,0.176478,0.15452,-0.083703,-0.028524,0.10445,-0.141553,-0.400721,0.19917,-0.176441,0.041052,-0.008461,-0.021354,0.072426,-0.027146,1.180009,0.547617,0.841319,1.109753,0.397999,-0.082732,0.267383,-1.12185,-0.880405,0.830509,-0.711313,0.28739,-0.067234
54,-0.004306,-0.002497,0.799109,0.014363,-0.029413,0.021175,0.99924,0.06776,0.045543,0.176299,0.154528,-0.083668,-0.02868,0.104459,-0.141497,-0.400872,0.19967,-0.176811,0.040872,-0.008518,-0.021339,0.072456,-0.028608,1.179714,0.547383,0.840868,1.1098,0.397856,-0.082754,0.267534,-1.122216,-0.879876,0.830765,-0.712575,0.286899,-0.067434
55,-0.004275,-0.002622,0.799101,0.01439,-0.029481,0.02128,0.999235,0.0679,0.045652,0.176069,0.154514,-0.083599,-0.028806,0.104503,-0.14145,-0.401077,0.200096,-0.177129,0.040704,-0.008602,-0.021334,0.072483,-0.029952,1.17949,0.547227,0.840242,1.109881,0.397725,-0.082991,0.267392,-1.122276,-0.87972,0.831003,-0.713662,0.286612,-0.067741
56,-0.00425,-0.002736,0.799094,0.014421,-0.029541,0.021368,0.999231,0.067996,0.045738,0.17587,0.154525,-0.083509,-0.028923,0.104562,-0.14143,-0.40125,0.200511,-0.177403,0.040539,-0.008702,-0.021332,0.072508,-0.03085,1.179326,0.547509,0.839414,1.109803,0.397291,-0.0831,0.266822,-1.122007,-0.879897,0.83128,-0.714122,0.286179,-0.067704
57,-0.004239,-0.00284,0.799088,0.014459,-0.029626,0.021457,0.999226,0.068056,0.045806,0.175669,0.154631,-0.083429,-0.029012,0.104619,-0.141448,-0.401414,0.20098,-0.177677,0.04038,-0.008796,-0.021325,0.072524,-0.031228,1.179273,0.548124,0.838568,1.109736,0.396571,-0.082998,0.266241,-1.121621,-0.880099,0.831629,-0.71434,0.285653,-0.067573
58,-0.004241,-0.002937,0.799081,0.0145,-0.029731,0.02155,0.99922,0.068098,0.045848,0.175458,0.154818,-0.083384,-0.029061,0.10465,-0.141451,-0.401584,0.201497,-0.177956,0.040232,-0.008863,-0.021308,0.07253,-0.031065,1.179401,0.548755,0.837908,1.11014,0.396121,-0.082764,0.265917,-1.121304,-0.879858,0.832151,-0.714757,0.285176,-0.066796
59,-0.004254,-0.003024,0.799074,0.014543,-0.029849,0.021624,0.999215,0.068134,0.045886,0.175268,0.155069,-0.083367,-0.029071,0.104642,-0.141451,-0.401721,0.202093,-0.178248,0.040097,-0.008902,-0.021277,0.072523,-0.030754,1.179557,0.549349,0.837414,1.11074,0.395948,-0.082661,0.265658,-1.121114,-0.879473,0.832697,-0.715232,0.28486,-0.065478
60,-0.004275,-0.003099,0.799066,0.014587,-0.029976,0.021703,0.999209,0.068175,0.045943,0.17506,0.155372,-0.083382,-0.029042,0.104618,-0.141514,-0.401855,0.202731,-0.178537,0.039984,-0.008896,-0.021228,0.0725,-0.030622,1.179688,0.549941,0.837025,1.111201,0.396033,-0.082413,0.265431,-1.121018,-0.878919,0.833071,-0.71584,0.284562,-0.063609
61,-0.004306,-0.003158,0.799056,0.01463,-0.030122,0.021783,0.999202,0.068248,0.045991,0.174848,0.155715,-0.083452,-0.029002,0.104618,-0.141651,-0.401966,0.203366,-0.178801,0.039882,-0.008858,-0.021157,0.072441,-0.030872,1.179711,0.55072,0.836688,1.111003,0.396118,-0.081897,0.265467,-1.121121,-0.877873,0.833241,-0.717206,0.284372,-0.06123
62,-0.004347,-0.003199,0.799045,0.014664,-0.030288,0.021876,0.999194,0.06834,0.045985,0.174643,0.156109,-0.083586,-0.028985,0.104644,-0.141845,-0.402079,0.203994,-0.179016,0.039794,-0.008792,-0.021069,0.072343,-0.031864,1.179349,0.55239,0.836063,1.10908,0.395859,-0.080209,0.265663,-1.121383,-0.876371,0.833204,-0.719403,0.283997,-0.058445
63,-0.004402,-0.003225,0.799035,0.01469,-0.030488,0.021993,0.999185,0.068467,0.045949,0.174402,0.156523,-0.083738,-0.028975,0.104733,-0.142069,-0.402233,0.204608,-0.179194,0.039716,-0.008685,-0.02098,0.072194,-0.033292,1.17866,0.554803,0.835066,1.105651,0.395315,-0.076307,0.265641,-1.121659,-0.874931,0.833125,-0.721777,0.28342,-0.055506
64,-0.004472,-0.003238,0.799026,0.014706,-0.03071,0.022127,0.999175,0.068633,0.045876,0.174131,0.156835,-0.083822,-0.028952,0.10489,-0.142292,-0.402417,0.205157,-0.179354,0.039657,-0.008554,-0.020907,0.072008,-0.034443,1.177935,0.557134,0.833764,1.10186,0.394047,-0.069762,0.265239,-1.121925,-0.873869,0.833104,-0.723868,0.28284,-0.05277
65,-0.004558,-0.003244,0.799017,0.014729,-0.030966,0.022315,0.999163,0.068822,0.045765,0.173764,0.157125,-0.083862,-0.02891,0.105159,-0.142525,-0.402709,0.205638,-0.179516,0.039634,-0.008414,-0.020851,0.071786,-0.034799,1.177456,0.558512,0.83222,1.099005,0.391368,-0.059784,0.264317,-1.122164,-0.873442,0.833045,-0.725259,0.282557,-0.050566
66,-0.004662,-0.003235,0.799009,0.01474,-0.031257,0.022545,0.999148,0.069041,0.045616,0.173282,0.157402,-0.083872,-0.028864,0.105547,-0.142753,-0.403093,0.206026,-0.179643,0.039631,-0.008288,-0.020816,0.071539,-0.034591,1.177189,0.558825,0.830967,1.097459,0.387715,-0.046766,0.26289,-1.122295,-0.873523,0.832796,-0.725781,0.28238,-0.048822
67,-0.004786,-0.003225,0.799001,0.014771,-0.031552,0.022823,0.999132,0.069257,0.045443,0.17275,0.157615,-0.083863,-0.02879,0.105938,-0.143002,-0.403571,0.206421,-0.179764,0.039642,-0.008173,-0.020795,0.071273,-0.034694,1.176989,0.559019,0.830203,1.095911,0.383553,-0.03296,0.261257,-1.12232,-0.873578,0.832359,-0.725762,0.281851,-0.047034
68,-0.004933,-0.003211,0.798994,0.014805,-0.031835,0.023131,0.999116,0.069403,0.045264,0.17219,0.157833,-0.083836,-0.028695,0.10626,-0.143258,-0.404105,0.206861,-0.179885,0.039654,-0.008067,-0.020787,0.071009,-0.035099,1.17694,0.559053,0.829984,1.094281,0.379377,-0.019828,0.259718,-1.122401,-0.873334,0.831918,-0.725791,0.281258,-0.045361
69,-0.00511,-0.003191,0.798988,0.014837,-0.032094,0.02343,0.9991,0.069418,0.045085,0.171625,0.158131,-0.0838,-0.02859,0.106443,-0.143512,-0.40462,0.207374,-0.180004,0.039656,-0.007975,-0.020792,0.070767,-0.035747,1.177134,0.558783,0.830557,1.092836,0.376159,-0.009154,0.25822,-1.122587,-0.872665,0.831547,-0.726052,0.280576,-0.043826
70,-0.005317,-0.003168,0.798984,0.014858,-0.032305,0.023693,0.999087,0.069241,0.044932,0.171114,0.158552,-0.083763,-0.028469,0.106414,-0.143747,-0.40506,0.207976,-0.180113,0.039634,-0.007901,-0.020816,0.070575,-0.036793,1.177476,0.558386,0.831554,1.091216,0.373703,-0.001477,0.256647,-1.122948,-0.871477,0.831271,-0.726649,0.279715,-0.042387
71,-0.005554,-0.003139,0.798984,0.014859,-0.032467,0.023924,0.999076,0.068886,0.044824,0.170658,0.159058,-0.083709,-0.028331,0.106199,-0.143962,-0.405422,0.208603,-0.180181,0.039554,-0.00783,-0.02086,0.070449,-0.03815,1.178024,0.557953,0.832718,1.089628,0.372613,0.003507,0.254983,-1.123514,-0.869969,0.831126,-0.727525,0.278855,-0.041241
72,-0.005819,-0.003107,0.798987,0.014853,-0.032608,0.024123,0.999067,0.068529,0.04473,0.170269,0.159418,-0.083594,-0.028174,0.1059,-0.144159,-0.405724,0.209158,-0.180161,0.039448,-0.007742,-0.020917,0.070365,-0.03922,1.179017,0.556767,0.833754,1.089149,0.372534,0.006676,0.25325,-1.124229,-0.868358,0.831101,-0.72855,0.278235,-0.040595
73,-0.006105,-0.00307,0.798997,0.014831,-0.032733,0.024292,0.999059,0.068211,0.044652,0.16994,0.159585,-0.083372,-0.027994,0.105587,-0.144298,-0.405983,0.209546,-0.180012,0.039332,-0.007616,-0.020987,0.070312,-0.040218,1.18021,0.555274,0.834643,1.089255,0.372923,0.008456,0.251326,-1.124981,-0.86676,0.831148,-0.729511,0.277706,-0.040445
74,-0.006406,-0.003031,0.799015,0.014789,-0.032846,0.024439,0.999052,0.067959,0.044598,0.169656,0.159526,-0.083022,-0.027803,0.105377,-0.144326,-0.406241,0.209566,-0.179652,0.039234,-0.007441,-0.021071,0.070277,-0.041337,1.181366,0.554127,0.835342,1.08922,0.373233,0.009332,0.249037,-1.125658,-0.865527,0.831199,-0.729989,0.27713,-0.040724
75,-0.006717,-0.002988,0.799042,0.014718,-0.03295,0.024574,0.999046,0.067755,0.044583,0.169392,0.1593,-0.082575,-0.027606,0.105295,-0.144225,-0.406521,0.209219,-0.179089,0.039154,-0.007213,-0.021175,0.070253,-0.042262,1.182433,0.553261,0.835805,1.089146,0.37327,0.010252,0.246624,-1.12631,-0.864574,0.831274,-0.730034,0.27654,-0.040558
76,-0.007032,-0.002936,0.799073,0.014629,-0.033041,0.024696,0.999042,0.067551,0.044554,0.169156,0.159007,-0.082089,-0.027398,0.105284,-0.144051,-0.406801,0.208641,-0.178403,0.039079,-0.006942,-0.021288,0.070245,-0.042847,1.183422,0.552707,0.836168,1.088818,0.372961,0.011181,0.244383,-1.127022,-0.863736,0.831301,-0.730111,0.276023,-0.040261
77,-0.00735,-0.002879,0.799101,0.014546,-0.033119,0.024825,0.999037,0.067245,0.044534,0.168903,0.158838,-0.081652,-0.027173,0.105167,-0.143932,-0.407063,0.208246,-0.177811,0.038985,-0.006649,-0.021403,0.070266,-0.043165,1.18433,0.55246,0.836518,1.08822,0.372786,0.011756,0.242465,-1.127735,-0.863077,0.831165,-0.73042,0.275419,-0.040832
78,-0.007666,-0.002817,0.799123,0.014474,-0.033196,0.024944,0.999033,0.066851,0.044545,0.168654,0.158851,-0.081308,-0.026926,0.104941,-0.143891,-0.407276,0.208082,-0.17734,0.038876,-0.006345,-0.021513,0.070311,-0.043246,1.185047,0.552563,0.836804,1.087294,0.372871,0.011982,0.241194,-1.128389,-0.861992,0.83114,-0.731477,0.274406,-0.04169
79,-0.007971,-0.002751,0.799141,0.014403,-0.033276,0.025062,0.999028,0.066422,0.044615,0.168377,0.158965,-0.081028,-0.026666,0.104704,-0.143878,-0.407481,0.208004,-0.176938,0.038784,-0.006032,-0.021622,0.070364,-0.043069,1.185567,0.552841,0.837137,1.086154,0.37312,0.011394,0.240239,-1.128852,-0.860702,0.831338,-0.732972,0.273084,-0.042483
80,-0.008255,-0.002668,0.799158,0.014323,-0.033357,0.025202,0.999023,0.066022,0.044587,0.168075,0.159091,-0.080793,-0.026396,0.104582,-0.143861,-0.407743,0.207817,-0.176537,0.038753,-0.005729,-0.021732,0.070415,-0.042101,1.186233,0.552243,0.838114,1.085971,0.373391,0.007753,0.239054,-1.128984,-0.859814,0.831686,-0.734029,0.271485,-0.042731
81,-0.008513,-0.002571,0.799175,0.014251,-0.033438,0.025348,0.999018,0.065688,0.04447,0.167776,0.159172,-0.080582,-0.026114,0.104595,-0.143832,-0.408034,0.207447,-0.176086,0.038756,-0.005439,-0.021855,0.070466,-0.041146,1.186741,0.55168,0.839117,1.085781,0.373037,0.001688,0.237652,-1.128903,-0.859343,0.832158,-0.734559,0.26987,-0.042316
82,-0.008741,-0.002465,0.799193,0.014181,-0.033518,0.02548,0.999013,0.065438,0.044356,0.167501,0.159203,-0.080395,-0.025813,0.104748,-0.143799,-0.408333,0.206868,-0.175564,0.038812,-0.005156,-0.021997,0.070528,-0.039894,1.187206,0.551005,0.839752,1.08648,0.37251,-0.004304,0.236474,-1.128872,-0.858943,0.832687,-0.735319,0.268753,-0.041912
83,-0.008943,-0.002341,0.799208,0.014106,-0.033631,0.025613,0.999006,0.065302,0.044208,0.167241,0.159246,-0.080269,-0.025489,0.105034,-0.143834,-0.408766,0.206306,-0.175088,0.038911,-0.004871,-0.022152,0.070611,-0.038686,1.187274,0.550724,0.839778,1.087717,0.372388,-0.008562,0.235506,-1.128838,-0.858663,0.833225,-0.736212,0.268302,-0.041506
84,-0.009122,-0.002209,0.799217,0.014028,-0.033767,0.025739,0.999,0.065232,0.044073,0.166997,0.15938,-0.080236,-0.025172,0.105327,-0.143885,-0.40904,0.205883,-0.174721,0.03903,-0.00461,-0.022325,0.070735,-0.037921,1.186708,0.551488,0.839351,1.088495,0.372844,-0.010839,0.234726,-1.128696,-0.858546,0.833679,-0.73703,0.268296,-0.041054
85,-0.009286,-0.00208,0.799225,0.013975,-0.033901,0.025855,0.998993,0.065196,0.043938,0.166778,0.159552,-0.080227,-0.024865,0.105591,-0.143941,-0.409222,0.205527,-0.174402,0.039164,-0.004363,-0.022496,0.070899,-0.037175,1.185886,0.552659,0.838765,1.089089,0.373723,-0.011874,0.234283,-1.128366,-0.858711,0.833929,-0.737678,0.26832,-0.040684
86,-0.009444,-0.001946,0.799232,0.013928,-0.034032,0.025965,0.998986,0.06516,0.04379,0.166584,0.159623,-0.080169,-0.024562,0.105835,-0.144002,-0.409355,0.2052,-0.174099,0.039315,-0.004115,-0.022664,0.071103,-0.036013,1.185219,0.553428,0.838265,1.090218,0.374639,-0.01231,0.234387,-1.127868,-0.859231,0.83398,-0.738153,0.267923,-0.040568
87,-0.009599,-0.001805,0.79924,0.013886,-0.034155,0.026059,0.99898,0.065116,0.043628,0.16643,0.159622,-0.08006,-0.024246,0.106047,-0.144082,-0.409459,0.204898,-0.173798,0.039482,-0.00387,-0.022829,0.071336,-0.034595,1.184874,0.553637,0.837993,1.091963,0.375403,-0.013276,0.234894,-1.127301,-0.85998,0.833979,-0.738565,0.267389,-0.040631
88,-0.009749,-0.001655,0.799248,0.013859,-0.034261,0.026112,0.998976,0.065041,0.043436,0.166361,0.159731,-0.080016,-0.023935,0.106194,-0.144196,-0.409535,0.204648,-0.173506,0.039675,-0.003651,-0.02298,0.071585,-0.032841,1.185043,0.553051,0.838144,1.094691,0.376099,-0.016175,0.23557,-1.126836,-0.860556,0.834057,-0.739202,0.267217,-0.040618
89,-0.009898,-0.001496,0.799254,0.013847,-0.034351,0.02614,0.998972,0.064916,0.043217,0.166328,0.159905,-0.080024,-0.023607,0.106282,-0.144338,-0.409562,0.204425,-0.173214,0.039898,-0.003458,-0.023107,0.071843,-0.031149,1.185528,0.552213,0.83844,1.097942,0.376493,-0.020674,0.23638,-1.126433,-0.861077,0.834084,-0.740035,0.267147,-0.04048
90,-0.01005,-0.001324,0.79926,0.013842,-0.034418,0.026142,0.99897,0.064734,0.042971,0.166366,0.16012,-0.080051,-0.023263,0.106287,-0.144524,-0.409513,0.204239,-0.172926,0.040139,-0.003302,-0.023203,0.072102,-0.029385,1.186228,0.551285,0.838941,1.101689,0.376562,-0.026556,0.237029,-1.125953,-0.861832,0.834022,-0.740682,0.267024,-0.040066
91,-0.010208,-0.001131,0.799266,0.013838,-0.034453,0.026139,0.998969,0.064475,0.042676,0.166484,0.160337,-0.080083,-0.022888,0.10616,-0.144793,-0.409365,0.204139,-0.172654,0.040389,-0.003176,-0.02326,0.072354,-0.027222,1.187236,0.549959,0.839855,1.106426,0.376298,-0.034202,0.237498,-1.125324,-0.862888,0.833867,-0.740897,0.266709,-0.039445
92,-0.010367,-0.000922,0.799272,0.013837,-0.034424,0.026113,0.99897,0.064082,0.042355,0.16661,0.16058,-0.080137,-0.022495,0.105885,-0.145099,-0.409167,0.204058,-0.172375,0.040646,-0.003071,-0.023294,0.072639,-0.024347,1.188823,0.547559,0.841436,1.113226,0.375768,-0.044106,0.237992,-1.124605,-0.864154,0.833741,-0.740993,0.266274,-0.039036
93,-0.010523,-0.000695,0.799278,0.013843,-0.034325,0.026024,0.998976,0.063589,0.042014,0.166862,0.160825,-0.080203,-0.022081,0.105438,-0.145475,-0.408936,0.204012,-0.172092,0.040915,-0.002993,-0.023306,0.07301,-0.021542,1.190498,0.545022,0.843127,1.121154,0.374214,-0.055053,0.238471,-1.123833,-0.865435,0.833652,-0.741123,0.265834,-0.038895
94,-0.010684,-0.000445,0.799286,0.013857,-0.034222,0.025897,0.998983,0.063121,0.041618,0.167199,0.161006,-0.080246,-0.021634,0.104933,-0.145931,-0.408662,0.203991,-0.171805,0.041205,-0.002929,-0.023298,0.073444,-0.020311,1.191053,0.545099,0.84375,1.127291,0.372104,-0.063085,0.238901,-1.123075,-0.866586,0.833645,-0.741299,0.26555,-0.039093
95,-0.01085,-0.000179,0.799295,0.013891,-0.034112,0.025802,0.998988,0.062668,0.04114,0.167501,0.161079,-0.080217,-0.021149,0.104407,-0.146444,-0.408345,0.203973,-0.171503,0.041524,-0.002863,-0.023274,0.073925,-0.02012,1.190163,0.547697,0.843504,1.131238,0.370237,-0.06663,0.239318,-1.122357,-0.867617,0.833701,-0.741411,0.265413,-0.039534
96,-0.011018,0.000102,0.799307,0.013938,-0.033985,0.025756,0.998993,0.062212,0.04058,0.167726,0.161027,-0.080096,-0.02063,0.10387,-0.147005,-0.408119,0.203953,-0.171175,0.041896,-0.002783,-0.02324,0.074447,-0.020168,1.188414,0.551377,0.843027,1.133999,0.369452,-0.067606,0.239835,-1.121733,-0.868468,0.833774,-0.741515,0.265385,-0.039756
97,-0.011186,0.000397,0.799323,0.014002,-0.033843,0.02574,0.998998,0.061785,0.039939,0.167907,0.160825,-0.079874,-0.020083,0.103343,-0.147628,-0.407962,0.203915,-0.170811,0.042284,-0.002707,-0.023202,0.075001,-0.019762,1.186593,0.554738,0.842443,1.136546,0.368211,-0.06819,0.240527,-1.121249,-0.869108,0.833768,-0.74182,0.265474,-0.0394
98,-0.011345,0.000703,0.799341,0.01409,-0.033697,0.025758,0.999001,0.061457,0.039197,0.168042,0.160402,-0.07953,-0.019511,0.102861,-0.148334,-0.407875,0.203877,-0.170426,0.042695,-0.002644,-0.023168,0.075571,-0.019301,1.185018,0.557426,0.841817,1.139191,0.366602,-0.068696,0.241356,-1.12089,-0.869863,0.833671,-0.742021,0.26561,-0.038335
99,-0.011494,0.001019,0.799358,0.014199,-0.033573,0.025827,0.999002,0.061165,0.038383,0.168094,0.160013,-0.079203,-0.018924,0.102455,-0.149119,-0.407866,0.203872,-0.17008,0.043149,-0.002592,-0.023139,0.076147,-0.018997,1.18383,0.559616,0.841478,1.141694,0.365085,-0.0697,0.242641,-1.120791,-0.870506,0.833589,-0.742748,0.266353,-0.037444
100,-0.011636,0.001339,0.799369,0.014323,-0.033475,0.025912,0.999001,0.060794,0.037562,0.168103,0.159935,-0.079032,-0.018342,0.102086,-0.149953,-0.40788,0.203936,-0.169804,0.043622,-0.002562,-0.023113,0.076726,-0.019544,1.182775,0.562243,0.841083,1.142822,0.364479,-0.070647,0.24329,-1.120406,-0.872071,0.833246,-0.74199,0.266449,-0.036601
101,-0.011775,0.001665,0.799376,0.014451,-0.033392,0.025996,0.999,0.060315,0.036757,0.168101,0.16017,-0.079017,-0.017766,0.101714,-0.150811,-0.407882,0.204081,-0.169565,0.044098,-0.002561,-0.023086,0.077293,-0.019407,1.182586,0.563423,0.840376,1.144379,0.362066,-0.072168,0.24447,-1.120236,-0.873369,0.832685,-0.740992,0.265405,-0.035603
102,-0.011919,0.002,0.799377,0.014569,-0.033322,0.026039,0.998999,0.05973,0.036003,0.168153,0.160705,-0.079147,-0.017202,0.101242,-0.151691,-0.407796,0.204451,-0.169387,0.044567,-0.002594,-0.023055,0.07783,-0.018193,1.183378,0.562471,0.840017,1.14722,0.356341,-0.079079,0.247086,-1.120438,-0.871904,0.831913,-0.742755,0.26408,-0.030179
103,-0.012072,0.002352,0.799374,0.014664,-0.033261,0.02603,0.999,0.058995,0.035338,0.168279,0.16161,-0.079458,-0.016649,0.10065,-0.152563,-0.407599,0.205043,-0.169261,0.04503,-0.002633,-0.02301,0.078314,-0.018117,1.183758,0.561494,0.839249,1.14783,0.347243,-0.090852,0.247397,-1.119333,-0.870002,0.830293,-0.742916,0.261129,-0.026308
104,-0.012249,0.002728,0.79937,0.014731,-0.033219,0.025954,0.999002,0.058169,0.034773,0.168532,0.162807,-0.079913,-0.016094,0.10002,-0.15337,-0.407259,0.205652,-0.169078,0.045477,-0.002651,-0.022927,0.078713,-0.016683,1.183,0.558041,0.838163,1.149493,0.333081,-0.109547,0.247042,-1.117021,-0.865488,0.829171,-0.743749,0.257822,-0.017968
105,-0.012476,0.003147,0.799366,0.014786,-0.033191,0.025668,0.99901,0.057333,0.034263,0.16919,0.164064,-0.080355,-0.015507,0.099048,-0.154211,-0.40648,0.206595,-0.168889,0.045883,-0.002676,-0.022789,0.079032,-0.015876,1.178514,0.554739,0.834918,1.152488,0.319181,-0.123567,0.241941,-1.112748,-0.858246,0.827411,-0.744769,0.256881,-0.008783
106,-0.012765,0.003627,0.799365,0.014834,-0.033157,0.025131,0.999024,0.056503,0.033789,0.170417,0.1652,-0.080632,-0.014905,0.097658,-0.155105,-0.405109,0.207891,-0.168718,0.046235,-0.002863,-0.022601,0.079187,-0.016845,1.167918,0.550692,0.829348,1.153865,0.306914,-0.132866,0.226745,-1.102157,-0.849496,0.821605,-0.743458,0.256844,-0.010065
107,-0.013106,0.004198,0.799365,0.014925,-0.033129,0.023936,0.999053,0.056088,0.033371,0.172998,0.165886,-0.08077,-0.014279,0.095621,-0.15606,-0.402346,0.209664,-0.168586,0.046543,-0.003435,-0.022344,0.079052,-0.017066,1.149095,0.543206,0.820294,1.158451,0.304641,-0.135267,0.200621,-1.080511,-0.838787,0.811216,-0.742097,0.262054,-0.022907
108,-0.013497,0.004919,0.799364,0.015096,-0.033023,0.021379,0.999112,0.056431,0.03301,0.178187,0.16582,-0.080963,-0.013594,0.092159,-0.157148,-0.396881,0.212271,-0.168453,0.04679,-0.004308,-0.021867,0.078581,-0.011316,1.11283,0.541135,0.798752,1.160337,0.309759,-0.119546,0.157094,-1.045996,-0.824953,0.799443,-0.726759,0.265314,-0.02471
109,-0.013964,0.005842,0.799357,0.015257,-0.032541,0.017449,0.999202,0.056588,0.032831,0.186064,0.165687,-0.081519,-0.012734,0.086168,-0.158361,-0.388528,0.216273,-0.168282,0.046947,-0.004635,-0.021017,0.078029,-0.004421,1.057291,0.538976,0.764079,1.151862,0.31924,-0.09384,0.111019,-1.001425,-0.797916,0.782921,-0.707807,0.266491,-0.020964
110,-0.014491,0.006998,0.799334,0.015306,-0.031759,0.012523,0.9993,0.056373,0.032857,0.195913,0.165898,-0.082606,-0.011582,0.078113,-0.159627,-0.378004,0.221613,-0.168138,0.047215,-0.003454,-0.019773,0.0776,0.008227,0.98118,0.537218,0.720504,1.121652,0.317383,-0.061876,0.073274,-0.950185,-0.747923,0.767387,-0.700024,0.260775,-0.015866
111,-0.015063,0.00836,0.799284,0.015258,-0.030964,0.007178,0.999378,0.055677,0.032919,0.206585,0.167081,-0.084212,-0.010017,0.069516,-0.160964,-0.366535,0.2275,-0.168142,0.047882,-0.000663,-0.018325,0.077486,0.030994,0.895206,0.522728,0.678969,1.087803,0.303604,-0.038091,0.05155,-0.900346,-0.666505,0.759066,-0.719981,0.248931,-0.001193
112,-0.015673,0.009821,0.799195,0.015086,-0.030365,0.002345,0.999422,0.053839,0.033172,0.216273,0.170702,-0.086754,-0.008201,0.061773,-0.162203,-0.356006,0.233148,-0.16833,0.048883,0.003705,-0.016905,0.077818,0.056224,0.806441,0.488825,0.646003,1.06027,0.274941,-0.038085,0.039801,-0.852944,-0.563029,0.757452,-0.761892,0.229082,0.029673
113,-0.016307,0.011312,0.799081,0.014729,-0.029977,-0.001353,0.999441,0.05083,0.033607,0.223641,0.176422,-0.089922,-0.006237,0.055545,-0.163321,-0.347802,0.238273,-0.16839,0.050183,0.009144,-0.015884,0.078641,0.079859,0.725244,0.425614,0.625863,1.055777,0.241624,-0.069204,0.035301,-0.803148,-0.454536,0.754178,-0.811039,0.19444,0.065822
114,-0.017022,0.012814,0.798915,0.014351,-0.029383,-0.00286,0.999461,0.044714,0.03356,0.226878,0.185283,-0.093664,-0.003813,0.050026,-0.165308,-0.343689,0.243934,-0.169301,0.052053,0.014922,-0.015533,0.079944,0.09938,0.658814,0.331448,0.612821,1.086248,0.204976,-0.123308,0.039244,-0.74475,-0.361259,0.742486,-0.864923,0.15461,0.089775
115,-0.017901,0.014305,0.798675,0.013938,-0.028354,-0.001629,0.999499,0.033616,0.033058,0.22489,0.199395,-0.098552,-0.00081,0.044636,-0.168422,-0.344625,0.250533,-0.171051,0.054398,0.02009,-0.015951,0.081748,0.109569,0.605009,0.211696,0.596445,1.165961,0.144167,-0.192459,0.046723,-0.674023,-0.298184,0.716195,-0.897539,0.122615,0.108588
116,-0.018965,0.015757,0.798343,0.013489,-0.027132,0.001841,0.999539,0.018783,0.032155,0.218445,0.217957,-0.104414,0.002501,0.039169,-0.172538,-0.349747,0.258644,-0.173575,0.056911,0.024134,-0.017192,0.083971,0.112368,0.551828,0.10929,0.576657,1.269435,0.069464,-0.253239,0.062993,-0.577146,-0.289114,0.675364,-0.902433,0.11388,0.098277
117,-0.020237,0.017235,0.797882,0.013036,-0.025905,0.007202,0.999553,0.001105,0.030562,0.208495,0.240502,-0.11131,0.006202,0.032838,-0.178133,-0.358122,0.270065,-0.177231,0.059761,0.027127,-0.019063,0.086404,0.114049,0.471915,0.068387,0.555966,1.332714,0.006645,-0.294015,0.088995,-0.461961,-0.310124,0.627826,-0.883894,0.117043,0.071374
118,-0.021719,0.01876,0.797285,0.012493,-0.024678,0.013384,0.999528,-0.018598,0.028696,0.196953,0.266244,-0.119055,0.010037,0.025094,-0.184665,-0.36784,0.284766,-0.181609,0.062715,0.02877,-0.021419,0.089167,0.129444,0.363441,0.095321,0.535319,1.338968,-0.020605,-0.317324,0.119261,-0.350668,-0.326212,0.587253,-0.866358,0.12695,0.046819
119,-0.023409,0.020422,0.796564,0.011787,-0.023431,0.019153,0.999472,-0.03901,0.026838,0.186027,0.293444,-0.127142,0.013954,0.015477,-0.191577,-0.376574,0.30208,-0.185996,0.065317,0.028875,-0.024145,0.09223,0.1618,0.239822,0.164297,0.507151,1.315304,-0.006414,-0.301113,0.15015,-0.259467,-0.320534,0.560784,-0.877381,0.137979,0.033576
120,-0.025342,0.022311,0.795688,0.011137,-0.022389,0.024103,0.999397,-0.058783,0.024419,0.176682,0.320853,-0.135591,0.018193,0.003667,-0.199498,-0.383203,0.322765,-0.190809,0.067416,0.028322,-0.02694,0.095582,0.208788,0.112924,0.248471,0.470153,1.275949,0.014952,-0.251899,0.180793,-0.188217,-0.303009,0.546711,-0.925922,0.158236,0.023158
121,-0.027583,0.024438,0.794632,0.010694,-0.021374,0.02828,0.999314,-0.078081,0.021036,0.168897,0.347963,-0.144369,0.022914,-0.011634,-0.209062,-0.387227,0.348378,-0.195897,0.06922,0.02836,-0.029686,0.099536,0.261471,-0.004352,0.327169,0.431989,1.227077,0.030667,-0.184985,0.209125,-0.11914,-0.299447,0.542999,-0.966268,0.183011,0.005907
122,-0.030249,0.026734,0.79338,0.01032,-0.020313,0.032431,0.999214,-0.098034,0.016721,0.161323,0.375514,-0.153541,0.028159,-0.031257,-0.220433,-0.388842,0.38061,-0.199173,0.071821,0.029682,-0.032523,0.10438,0.310902,-0.096165,0.385501,0.406352,1.169516,0.044973,-0.111554,0.240407,-0.056562,-0.313619,0.548228,-0.977896,0.196556,-0.019002
123,-0.03351,0.028993,0.791806,0.010083,-0.019033,0.037043,0.999082,-0.120915,0.011601,0.152962,0.406136,-0.163823,0.033629,-0.057259,-0.233958,-0.388012,0.422432,-0.199914,0.072848,0.03224,-0.03541,0.110518,0.344885,-0.152783,0.411058,0.413358,1.140204,0.068237,-0.058003,0.266103,-0.00233,-0.327511,0.559995,-0.968439,0.214201,-0.044246
124,-0.037535,0.031014,0.789692,0.009821,-0.017309,0.042267,0.998908,-0.14969,0.006492,0.143455,0.443701,-0.176109,0.038909,-0.092142,-0.249568,-0.384644,0.477042,-0.198393,0.070151,0.035426,-0.038304,0.118107,0.36753,-0.174943,0.416429,0.447535,1.135384,0.104157,-0.024818,0.295706,0.027237,-0.327344,0.581003,-0.967266,0.222034,-0.05299
125,-0.042256,0.03279,0.786991,0.009311,-0.015459,0.04725,0.99872,-0.182165,0.002107,0.134429,0.485898,-0.189926,0.043966,-0.136555,-0.267107,-0.377394,0.545946,-0.190995,0.064427,0.038036,-0.041409,0.126884,0.378614,-0.172194,0.406897,0.506005,1.146938,0.141391,-0.022935,0.324138,0.033767,-0.311079,0.60779,-0.983847,0.224488,-0.050054
126,-0.047565,0.034218,0.783842,0.008785,-0.013525,0.051345,0.998551,-0.217304,-0.001133,0.127677,0.531543,-0.20492,0.048667,-0.190442,-0.286103,-0.365113,0.628461,-0.176235,0.053509,0.038321,-0.04545,0.136525,0.378264,-0.153682,0.392532,0.583925,1.164945,0.181562,-0.048296,0.346258,0.028461,-0.291027,0.637602,-0.995658,0.218713,-0.032739
127,-0.053016,0.03508,0.782171,0.008738,-0.011611,0.055371,0.99836,-0.253241,-0.004239,0.122241,0.577816,-0.219259,0.052872,-0.250709,-0.307177,-0.350826,0.720999,-0.156393,0.032844,0.035906,-0.051297,0.1461,0.366071,-0.129068,0.368728,0.674501,1.19034,0.228355,-0.091892,0.365213,0.011392,-0.264284,0.665919,-1.002376,0.201964,-0.000763
128,-0.058657,0.035493,0.778795,0.008738,-0.009528,0.060326,0.998095,-0.285349,-0.008198,0.116454,0.613828,-0.229513,0.056716,-0.306224,-0.328066,-0.343827,0.801913,-0.137865,0.003595,0.031517,-0.059623,0.154893,0.36105,-0.088631,0.337884,0.75496,1.228668,0.255593,-0.157069,0.371436,-0.015528,-0.238329,0.69679,-1.006921,0.182015,0.057959
129,-0.06428,0.035456,0.775645,0.008974,-0.00779,0.066876,0.997691,-0.310245,-0.014482,0.108849,0.635383,-0.233288,0.060314,-0.349289,-0.347243,-0.342935,0.862679,-0.12575,-0.019124,0.02564,-0.069878,0.162468,0.348096,-0.048469,0.286986,0.819767,1.293814,0.274502,-0.223202,0.371737,-0.041526,-0.211512,0.720367,-1.013601,0.16522,0.121558
130,-0.069755,0.034801,0.77366,0.009851,-0.006514,0.075385,0.997085,-0.327732,-0.02429,0.097668,0.642854,-0.229101,0.063193,-0.37572,-0.360492,-0.344238,0.898558,-0.12207,-0.034152,0.01943,-0.081041,0.168048,0.335418,-0.008955,0.227978,0.861492,1.376455,0.272122,-0.27802,0.372852,-0.063961,-0.187242,0.729582,-1.024298,0.150336,0.16964
131,-0.074857,0.033374,0.773438,0.009886,-0.006544,0.086318,0.996197,-0.335728,-0.035163,0.080448,0.636512,-0.216672,0.064753,-0.388302,-0.351195,-0.327909,0.916727,-0.124688,-0.030695,0.014688,-0.091572,0.171283,0.324461,0.027125,0.181376,0.876009,1.457053,0.253456,-0.29822,0.378069,-0.073645,-0.172564,0.724738,-1.030618,0.146175,0.190171
132,-0.079678,0.031814,0.775825,0.009517,-0.007654,0.09747,0.995163,-0.334107,-0.045279,0.061232,0.617421,-0.197293,0.064895,-0.391395,-0.323315,-0.295491,0.932715,-0.126075,-0.015935,0.013256,-0.100217,0.171858,0.31383,0.045145,0.173434,0.85761,1.500043,0.241616,-0.281455,0.382604,-0.075812,-0.162397,0.716536,-1.034299,0.150774,0.190221
133,-0.084367,0.029877,0.77783,0.009454,-0.00922,0.108003,0.994063,-0.327328,-0.054852,0.042412,0.590482,-0.174329,0.064194,-0.377851,-0.305972,-0.282961,0.955582,-0.123781,-0.007118,0.015987,-0.107537,0.169405,0.303178,0.040614,0.201283,0.816294,1.496636,0.243866,-0.239763,0.389719,-0.073861,-0.153501,0.702849,-1.033769,0.156932,0.177619
134,-0.089077,0.02778,0.779522,0.009823,-0.011229,0.118094,0.99289,-0.317194,-0.064484,0.024544,0.558994,-0.149277,0.063379,-0.351374,-0.305152,-0.291064,0.994099,-0.125938,-0.024565,0.02035,-0.114538,0.16497,0.294579,0.018624,0.265611,0.755243,1.427503,0.243331,-0.177682,0.389211,-0.075693,-0.13938,0.693678,-1.030138,0.161682,0.172512
135,-0.093981,0.02553,0.780583,0.011295,-0.013855,0.12951,0.991417,-0.307207,-0.076893,0.005482,0.53004,-0.124858,0.062667,-0.322719,-0.303477,-0.293184,1.046982,-0.122656,-0.046424,0.024313,-0.121461,0.159837,0.283706,-0.010213,0.33533,0.690152,1.315733,0.230527,-0.117397,0.382863,-0.083164,-0.120215,0.685887,-1.023575,0.160118,0.175947
136,-0.099227,0.023182,0.781004,0.013104,-0.016856,0.142675,0.989539,-0.299371,-0.091408,-0.016014,0.506245,-0.102249,0.061987,-0.292689,-0.288668,-0.279156,1.101877,-0.12315,-0.046158,0.028661,-0.127967,0.154069,0.26788,-0.040817,0.391424,0.630757,1.187193,0.209234,-0.074397,0.37363,-0.089977,-0.099061,0.679687,-1.014099,0.15594,0.17492
137,-0.10505,0.020767,0.780903,0.015922,-0.019915,0.155449,0.987515,-0.293455,-0.107639,-0.036097,0.485706,-0.080304,0.061539,-0.263021,-0.258837,-0.248868,1.147975,-0.123328,-0.0392,0.033949,-0.133613,0.147889,0.254416,-0.063671,0.423833,0.574897,1.062692,0.183622,-0.048391,0.360967,-0.104746,-0.077627,0.66959,-1.006196,0.153193,0.179067
138,-0.111605,0.018286,0.780463,0.019319,-0.022585,0.167275,0.985462,-0.289989,-0.124563,-0.054172,0.466862,-0.057888,0.061276,-0.231695,-0.216162,-0.209459,1.176987,-0.119845,-0.02552,0.040871,-0.138277,0.141768,0.244675,-0.07631,0.425834,0.523951,0.974859,0.167891,-0.032026,0.34545,-0.121241,-0.059305,0.654499,-0.998846,0.152076,0.175115
139,-0.11903,0.015706,0.779875,0.022161,-0.024969,0.178533,0.983367,-0.288735,-0.140416,-0.071614,0.448612,-0.034337,0.060936,-0.19531,-0.167772,-0.171663,1.179453,-0.108831,-0.003445,0.050177,-0.141223,0.135474,0.23925,-0.079138,0.402696,0.476611,0.937917,0.156716,-0.014797,0.326928,-0.133896,-0.047923,0.638276,-0.989799,0.156386,0.163421
140,-0.127567,0.012953,0.779092,0.024859,-0.02682,0.188978,0.9813,-0.290825,-0.155839,-0.087403,0.431595,-0.00942,0.060685,-0.151669,-0.128411,-0.14705,1.148928,-0.094429,0.011576,0.061782,-0.141844,0.129253,0.243752,-0.076878,0.372572,0.43702,0.942086,0.13864,0.007439,0.299363,-0.142329,-0.045717,0.630473,-0.979253,0.164141,0.147
141,-0.137374,0.009952,0.778117,0.027284,-0.028038,0.198879,0.979243,-0.297252,-0.170923,-0.101606,0.416799,0.016748,0.060484,-0.101991,-0.109341,-0.145043,1.085069,-0.072875,0.021104,0.074071,-0.140239,0.12362,0.246434,-0.077203,0.338625,0.404073,0.97498,0.129643,0.022509,0.269979,-0.14855,-0.050039,0.624674,-0.963805,0.174986,0.128031
142,-0.148634,0.006648,0.776877,0.029615,-0.028259,0.208981,0.977063,-0.310638,-0.187307,-0.114649,0.407685,0.043136,0.060541,-0.049265,-0.109017,-0.16701,0.993487,-0.075785,0.015299,0.085445,-0.136872,0.119605,0.250513,-0.082186,0.309123,0.375805,1.013819,0.119166,0.026544,0.234041,-0.155041,-0.05752,0.623741,-0.945685,0.186937,0.109625
143,-0.161534,0.002958,0.775189,0.032306,-0.027756,0.21902,0.97479,-0.330372,-0.205626,-0.125553,0.403745,0.070045,0.061062,-0.00168,-0.115327,-0.199502,0.905406,-0.14415,0.006472,0.09582,-0.131129,0.117969,0.258408,-0.087624,0.283008,0.354931,1.056144,0.113835,0.022103,0.19257,-0.163027,-0.064327,0.629266,-0.927161,0.20022,0.090976
144,-0.176077,-0.001195,0.773417,0.034831,-0.025416,0.228176,0.972665,-0.356935,-0.224067,-0.133309,0.40099,0.100014,0.061925,0.034337,-0.124904,-0.241074,0.822501,-0.204531,-0.014394,0.106187,-0.123025,0.118594,0.268219,-0.095508,0.264178,0.340369,1.078407,0.103897,0.012682,0.146694,-0.175526,-0.064689,0.638058,-0.912839,0.209779,0.075202
145,-0.192112,-0.005797,0.771741,0.036981,-0.02093,0.236118,0.970795,-0.388112,-0.241201,-0.138023,0.393282,0.135827,0.061946,0.055307,-0.134521,-0.282704,0.745624,-0.261951,-0.037732,0.116895,-0.112355,0.121037,0.283013,-0.099497,0.250447,0.334558,1.085025,0.094578,0.005598,0.11324,-0.188866,-0.056989,0.63422,-0.913502,0.211836,0.066641
146,-0.209397,-0.010603,0.769118,0.037382,-0.015932,0.242893,0.969202,-0.411437,-0.252802,-0.143797,0.36185,0.181614,0.058112,0.058063,-0.137523,-0.302546,0.689013,-0.343405,-0.027694,0.1276,-0.098635,0.124831,0.299015,-0.097763,0.239835,0.339381,1.087796,0.092821,-0.003164,0.072513,-0.204881,-0.043943,0.634585,-0.915974,0.211768,0.066859
147,-0.227432,-0.015468,0.765974,0.036563,-0.011079,0.247464,0.968144,-0.424801,-0.257331,-0.151149,0.308389,0.226062,0.02653,0.040434,-0.139985,-0.306399,0.659547,-0.411126,-0.011662,0.138159,-0.081572,0.130351,0.322301,-0.09346,0.234887,0.348924,1.087161,0.100819,-0.014569,0.022029,-0.224864,-0.026533,0.637601,-0.923191,0.209783,0.07509
148,-0.245913,-0.020263,0.764378,0.034401,-0.007443,0.251008,0.967345,-0.434038,-0.254413,-0.155631,0.243383,0.234766,-0.026761,0.012233,-0.144817,-0.312488,0.642772,-0.450178,-0.005416,0.147672,-0.061519,0.136328,0.346889,-0.086981,0.232218,0.374589,1.091784,0.113569,-0.017298,-0.01679,-0.236643,-0.009722,0.642037,-0.928311,0.205083,0.074163
149,-0.263856,-0.024365,0.768081,0.031826,-0.004636,0.254913,0.966429,-0.442332,-0.243695,-0.142372,0.187489,0.182002,-0.060092,-0.015406,-0.149337,-0.318878,0.631671,-0.464801,-0.004024,0.153241,-0.040105,0.141343,0.374136,-0.083399,0.233868,0.418663,1.098279,0.142737,-0.020052,-0.043148,-0.234812,0.003718,0.654635,-0.924662,0.199842,0.057927
150,-0.281061,-0.027412,0.770933,0.028946,-0.003907,0.259134,0.9654,-0.447412,-0.221169,-0.09253,0.160037,0.103099,-0.094834,-0.033586,-0.152437,-0.325489,0.613939,-0.462524,0.000026,0.154393,-0.020068,0.144384,0.385169,-0.08242,0.237091,0.481725,1.105856,0.197955,-0.040001,-0.076147,-0.23458,0.013581,0.674107,-0.915898,0.194138,0.043717
151,-0.297596,-0.02951,0.774823,0.02741,-0.004303,0.264416,0.96401,-0.445742,-0.184615,0.009599,0.159033,0.07216,-0.149295,-0.041829,-0.156752,-0.332869,0.583398,-0.439126,0.004239,0.150967,-0.003007,0.145186,0.3928,-0.078115,0.249163,0.575975,1.115582,0.255312,-0.062373,-0.084661,-0.236443,0.011344,0.672168,-0.898744,0.184934,0.048441
152,-0.313504,-0.030698,0.779387,0.028197,-0.005059,0.268221,0.962931,-0.434347,-0.143134,0.100764,0.195042,0.058652,-0.146263,-0.046531,-0.165345,-0.335992,0.550416,-0.403257,0.008478,0.147096,0.009147,0.144651,0.403278,-0.069165,0.257239,0.684933,1.138593,0.312291,-0.105345,-0.072138,-0.229165,0.004605,0.664968,-0.878141,0.180038,0.049534
153,-0.328775,-0.031037,0.783371,0.030631,-0.007216,0.267335,0.96309,-0.435795,-0.105321,0.134657,0.301585,0.026233,-0.105147,-0.054736,-0.177849,-0.329709,0.532196,-0.368853,0.014123,0.146476,0.016656,0.14472,0.418899,-0.048308,0.240135,0.786997,1.197422,0.359049,-0.184515,-0.047708,-0.21831,0.001662,0.656499,-0.859409,0.171552,0.050002
154,-0.343414,-0.030697,0.786145,0.032323,-0.010637,0.262393,0.964361,-0.436026,-0.070529,0.128326,0.440967,-0.013935,-0.081471,-0.06558,-0.187756,-0.31536,0.523901,-0.343602,0.020275,0.147971,0.020855,0.144923,0.443819,-0.016078,0.18924,0.857183,1.293289,0.35981,-0.29323,-0.018709,-0.203659,0.003386,0.648626,-0.844083,0.161009,0.047685
155,-0.357684,-0.030092,0.787915,0.03263,-0.014522,0.255253,0.966215,-0.429259,-0.045893,0.088,0.579847,-0.051136,-0.074955,-0.077697,-0.192635,-0.297268,0.517353,-0.32252,0.024894,0.150512,0.024434,0.144294,0.474777,0.016082,0.147028,0.883354,1.383035,0.30711,-0.386236,0.011491,-0.187652,0.008251,0.643022,-0.834055,0.149251,0.03246
156,-0.371824,-0.029295,0.788756,0.031327,-0.018615,0.24663,0.968424,-0.406437,-0.018071,0.048437,0.695388,-0.085186,-0.08046,-0.092663,-0.193377,-0.277315,0.514685,-0.303837,0.02862,0.150944,0.02825,0.141528,0.506403,0.035136,0.156142,0.878402,1.423496,0.240264,-0.440558,0.039662,-0.172661,0.016638,0.647336,-0.834813,0.149857,0.008145
157,-0.385997,-0.028402,0.788896,0.029001,-0.022564,0.23769,0.970646,-0.365294,0.017524,0.023397,0.7757,-0.112306,-0.076944,-0.109902,-0.191241,-0.256709,0.514272,-0.28452,0.031775,0.148451,0.03159,0.137142,0.533177,0.035901,0.21496,0.857992,1.416898,0.207213,-0.45172,0.063778,-0.154281,0.020087,0.664345,-0.83781,0.161427,-0.017366
158,-0.400423,-0.027423,0.788335,0.02572,-0.026524,0.229386,0.972634,-0.310485,0.05679,0.007941,0.821517,-0.140725,-0.075385,-0.129427,-0.187391,-0.236896,0.517594,-0.264189,0.035161,0.142963,0.034187,0.131961,0.549919,0.023006,0.292811,0.833809,1.383808,0.201421,-0.443323,0.085102,-0.13306,0.011804,0.693435,-0.835619,0.181675,-0.037395
159,-0.415295,-0.026416,0.787148,0.022218,-0.029792,0.221648,0.974418,-0.2476,0.080765,-0.020421,0.838293,-0.168946,-0.082101,-0.152551,-0.18374,-0.218027,0.525061,-0.245172,0.039628,0.134325,0.035563,0.126869,0.551159,0.005841,0.354807,0.806385,1.359123,0.222669,-0.409468,0.103738,-0.110067,-0.011732,0.727738,-0.827734,0.211938,-0.052524
160,-0.430985,-0.02529,0.785516,0.018142,-0.032759,0.21681,0.975495,-0.181965,0.077004,-0.077704,0.831656,-0.178082,-0.099766,-0.177999,-0.181945,-0.203978,0.53657,-0.227377,0.046098,0.122708,0.034749,0.122226,0.534298,-0.004089,0.381575,0.785351,1.358589,0.24042,-0.359245,0.124145,-0.088364,-0.047029,0.761231,-0.818139,0.251249,-0.061218
161,-0.447755,-0.023987,0.783822,0.014849,-0.034294,0.215277,0.975838,-0.112987,0.051691,-0.155742,0.802822,-0.167859,-0.129197,-0.207726,-0.185756,-0.194123,0.551448,-0.209638,0.05393,0.108467,0.031694,0.11813,0.497744,-0.003197,0.375697,0.77495,1.380989,0.25374,-0.307442,0.14904,-0.070964,-0.088447,0.784977,-0.804195,0.28413,-0.059401
162,-0.465868,-0.022367,0.782206,0.012069,-0.034523,0.215834,0.975745,-0.046484,0.024919,-0.228878,0.750539,-0.169677,-0.142716,-0.241992,-0.194186,-0.186053,0.5676,-0.189993,0.062517,0.09267,0.026515,0.115411,0.443546,0.005563,0.348375,0.774938,1.414571,0.261877,-0.261094,0.177098,-0.061119,-0.125611,0.79904,-0.792125,0.302984,-0.052295
163,-0.4854,-0.020323,0.781009,0.011021,-0.033046,0.216854,0.975582,0.005715,0.012924,-0.266263,0.663293,-0.190571,-0.110763,-0.277381,-0.207852,-0.176605,0.575148,-0.163947,0.0726,0.076238,0.019838,0.115514,0.371557,0.015238,0.308148,0.783212,1.454811,0.268867,-0.228049,0.206579,-0.062207,-0.153658,0.802206,-0.783866,0.300819,-0.044443
164,-0.506258,-0.017967,0.780233,0.012859,-0.02893,0.216336,0.975806,0.03035,0.00375,-0.263496,0.561176,-0.244527,-0.08545,-0.307076,-0.224679,-0.16361,0.553459,-0.122109,0.082718,0.06111,0.011356,0.118569,0.286272,0.018763,0.272787,0.794288,1.482552,0.269696,-0.199172,0.234988,-0.077365,-0.169183,0.797204,-0.78527,0.287313,-0.035237
165,-0.529129,-0.015354,0.777656,0.014219,-0.023053,0.215928,0.976034,0.019225,-0.008117,-0.235569,0.500514,-0.280942,-0.064086,-0.332741,-0.2415,-0.151089,0.506189,-0.063558,0.096771,0.049526,0.001442,0.124552,0.185609,0.011561,0.248183,0.804818,1.492432,0.270466,-0.173235,0.259375,-0.089613,-0.179045,0.788777,-0.796429,0.281075,-0.034126
166,-0.552418,-0.012788,0.777586,0.015416,-0.015998,0.212694,0.976866,-0.011623,-0.026098,-0.212734,0.474634,-0.296795,-0.051141,-0.34957,-0.252903,-0.137692,0.432617,0.005697,0.103084,0.041295,-0.010251,0.130873,0.089084,0.000292,0.237468,0.803483,1.482836,0.262679,-0.148015,0.279153,-0.093707,-0.198517,0.777328,-0.798552,0.278282,-0.035739
167,-0.5751,-0.010883,0.778262,0.017588,-0.009804,0.207656,0.977995,-0.050602,-0.047695,-0.195609,0.469623,-0.292396,-0.034556,-0.356819,-0.262815,-0.133265,0.351721,0.063163,0.088427,0.035922,-0.023381,0.136193,0.002782,-0.012658,0.237769,0.788465,1.455283,0.254006,-0.121637,0.29612,-0.091836,-0.219296,0.767421,-0.798122,0.275088,-0.034768
168,-0.597428,-0.009236,0.782785,0.019292,-0.007093,0.201577,0.979257,-0.085407,-0.065956,-0.178155,0.46969,-0.273289,-0.022235,-0.36602,-0.283374,-0.169777,0.323387,0.060452,0.0641,0.03483,-0.036488,0.141016,-0.074959,-0.021901,0.239742,0.767125,1.413791,0.242862,-0.099328,0.308522,-0.087237,-0.231228,0.763991,-0.805137,0.274439,-0.02635
169,-0.618709,-0.007943,0.785115,0.019432,-0.009127,0.193161,0.980932,-0.113479,-0.07567,-0.1571,0.476083,-0.249347,-0.014106,-0.374546,-0.316087,-0.252739,0.402098,0.041749,0.046397,0.035344,-0.048164,0.144908,-0.145568,-0.019607,0.235221,0.750657,1.370617,0.232093,-0.082192,0.309432,-0.084345,-0.22648,0.775569,-0.826963,0.275357,-0.010645
170,-0.638657,-0.007093,0.786597,0.01923,-0.015536,0.185197,0.98239,-0.132672,-0.080103,-0.138129,0.485998,-0.225562,-0.007719,-0.374773,-0.353749,-0.328599,0.560578,0.000838,0.013417,0.033124,-0.058172,0.145675,-0.204327,-0.008504,0.222388,0.739708,1.332786,0.215024,-0.062049,0.303102,-0.084803,-0.210313,0.796194,-0.862191,0.273268,0.012533
171,-0.657594,-0.006455,0.787483,0.019168,-0.023653,0.179013,0.983376,-0.144365,-0.082731,-0.122311,0.49095,-0.202525,-0.000794,-0.36473,-0.370891,-0.35352,0.739098,-0.031916,-0.009532,0.026931,-0.066811,0.143325,-0.250195,0.010068,0.196935,0.730173,1.315429,0.20604,-0.045797,0.293784,-0.088427,-0.189544,0.812751,-0.906243,0.263712,0.032406
172,-0.676033,-0.005808,0.787641,0.019545,-0.031133,0.17436,0.983996,-0.152562,-0.086478,-0.109098,0.487307,-0.178608,0.006648,-0.344486,-0.36148,-0.341676,0.903025,-0.051963,-0.004011,0.019888,-0.074687,0.137867,-0.285382,0.031218,0.161303,0.715408,1.307993,0.198553,-0.039609,0.282451,-0.089674,-0.181186,0.819997,-0.938638,0.251872,0.041342
173,-0.69432,-0.005195,0.786922,0.020794,-0.037191,0.170189,0.98449,-0.162698,-0.092087,-0.096034,0.482023,-0.153414,0.013947,-0.312172,-0.33339,-0.316029,1.034871,-0.057722,0.012375,0.015538,-0.08105,0.129738,-0.30952,0.051052,0.121787,0.693222,1.301519,0.189638,-0.037668,0.26796,-0.086756,-0.192574,0.818007,-0.948539,0.242055,0.041659
174,-0.71287,-0.004543,0.785328,0.022549,-0.042407,0.163866,0.985313,-0.176528,-0.097421,-0.078973,0.480652,-0.130319,0.020972,-0.266128,-0.29604,-0.286763,1.127119,-0.052893,0.04278,0.015174,-0.085048,0.120272,-0.320184,0.068787,0.088229,0.664244,1.28936,0.178078,-0.032856,0.248437,-0.085171,-0.211639,0.814447,-0.946719,0.230625,0.042388
175,-0.73214,-0.003822,0.782852,0.025446,-0.046412,0.153303,0.986761,-0.195887,-0.102211,-0.05393,0.484423,-0.109395,0.02842,-0.211188,-0.258976,-0.25558,1.179403,-0.046242,0.05206,0.018154,-0.086714,0.11097,-0.315619,0.082327,0.070295,0.626657,1.262812,0.15945,-0.020822,0.218913,-0.091171,-0.223349,0.815198,-0.94905,0.221687,0.050329
176,-0.752317,-0.00319,0.779701,0.027651,-0.049312,0.140574,0.988455,-0.221429,-0.103517,-0.025626,0.492779,-0.089811,0.035592,-0.14778,-0.221391,-0.221646,1.188571,-0.052317,0.061718,0.023913,-0.085726,0.102487,-0.295864,0.092061,0.067706,0.585518,1.228981,0.14739,-0.015633,0.177593,-0.101054,-0.223104,0.821582,-0.960112,0.217332,0.060171
177,-0.773699,-0.003018,0.775717,0.029434,-0.050555,0.127078,0.990166,-0.258027,-0.101296,0.004184,0.511702,-0.072703,0.041722,-0.079558,-0.187551,-0.188029,1.159354,-0.075694,0.071421,0.030955,-0.081983,0.095555,-0.265121,0.095942,0.075889,0.539834,1.191958,0.140427,-0.014992,0.126793,-0.112653,-0.210765,0.830591,-0.978846,0.212377,0.071299
178,-0.796655,-0.003353,0.771397,0.031475,-0.050422,0.112753,0.991844,-0.299663,-0.095991,0.035891,0.529363,-0.052065,0.047517,-0.013005,-0.152717,-0.14773,1.097408,-0.094181,0.075307,0.038014,-0.075812,0.090998,-0.2253,0.09525,0.089056,0.495044,1.15773,0.136893,-0.010032,0.068843,-0.124847,-0.191203,0.83778,-0.999707,0.207774,0.084316
179,-0.82144,-0.004177,0.767544,0.03425,-0.04731,0.099386,0.993333,-0.343363,-0.090462,0.067812,0.532487,-0.021784,0.054074,0.045658,-0.120596,-0.100275,1.006409,-0.12399,0.079229,0.045278,-0.067463,0.0887,-0.183371,0.088091,0.105414,0.458575,1.124961,0.137012,-0.001615,0.007445,-0.135706,-0.17325,0.837099,-1.014161,0.203422,0.091564
180,-0.848153,-0.005597,0.764985,0.038187,-0.04031,0.085559,0.994785,-0.386876,-0.084799,0.101172,0.513811,0.022605,0.06006,0.09047,-0.111587,-0.071269,0.885648,-0.201248,0.050916,0.054023,-0.05759,0.088215,-0.143278,0.079467,0.119555,0.44087,1.099852,0.142516,0.007107,-0.054634,-0.142215,-0.160708,0.827258,-1.01743,0.197859,0.084932
181,-0.876615,-0.007822,0.764162,0.041253,-0.030434,0.073153,0.996002,-0.428315,-0.077807,0.128757,0.473613,0.076262,0.053947,0.119909,-0.117538,-0.072086,0.736311,-0.291,-0.008273,0.06448,-0.045887,0.090236,-0.110083,0.075561,0.124221,0.448029,1.086008,0.151917,0.008985,-0.110893,-0.139244,-0.156858,0.80866,-1.004749,0.194145,0.067698
182,-0.906258,-0.010757,0.763701,0.039473,-0.017453,0.062688,0.997099,-0.46698,-0.064779,0.143066,0.411603,0.115954,0.015135,0.107512,-0.122932,-0.091265,0.632386,-0.399577,-0.009782,0.075151,-0.031818,0.094843,-0.087454,0.08468,0.117559,0.480619,1.092179,0.174301,-0.011422,-0.159471,-0.123753,-0.156093,0.782954,-0.979362,0.187251,0.031385
183,-0.937324,-0.014396,0.769854,0.037231,-0.001353,0.053857,0.997853,-0.511249,-0.053348,0.152002,0.329294,0.081502,-0.022027,0.048258,-0.121815,-0.09451,0.585869,-0.466728,0.001948,0.083311,-0.016205,0.100796,-0.072116,0.098855,0.098106,0.53433,1.122305,0.201413,-0.05015,-0.200295,-0.104732,-0.153499,0.753478,-0.946579,0.178023,-0.013276
184,-0.967867,-0.018186,0.770271,0.034765,0.013541,0.049249,0.998089,-0.528575,-0.04805,0.152734,0.236407,-0.007513,-0.048931,-0.026362,-0.113874,-0.081646,0.568666,-0.488833,0.007481,0.088171,-0.000859,0.106345,-0.052685,0.117109,0.061798,0.60308,1.176726,0.229092,-0.100222,-0.223532,-0.088191,-0.145485,0.723618,-0.923902,0.168512,-0.05114
185,-0.99629,-0.021913,0.773702,0.030081,0.023797,0.050191,0.998003,-0.537148,-0.03565,0.166387,0.181648,-0.063244,-0.103588,-0.087746,-0.102414,-0.080268,0.557055,-0.468768,0.004012,0.088741,0.013821,0.110818,-0.049183,0.126675,0.008024,0.701849,1.255798,0.254869,-0.162715,-0.225922,-0.082477,-0.132956,0.698694,-0.912751,0.161341,-0.071484
186,-1.02298,-0.02575,0.778659,0.025946,0.029872,0.059608,0.997437,-0.533013,-0.011195,0.222305,0.198743,-0.048413,-0.139514,-0.126151,-0.09473,-0.095612,0.527561,-0.422475,-0.00229,0.082751,0.026124,0.113465,-0.044006,0.131594,-0.05995,0.811951,1.351621,0.250853,-0.230132,-0.209014,-0.085281,-0.119589,0.678302,-0.913827,0.158037,-0.08461
187,-1.047718,-0.029232,0.783669,0.024691,0.031621,0.070515,0.996704,-0.531128,0.01751,0.256327,0.309069,-0.068042,-0.105749,-0.151757,-0.095944,-0.114165,0.499052,-0.372867,-0.005613,0.077171,0.0333,0.115137,-0.036688,0.135365,-0.132241,0.909153,1.456458,0.224548,-0.315271,-0.174841,-0.089881,-0.11197,0.66281,-0.920854,0.161441,-0.097295
188,-1.070526,-0.032201,0.787608,0.023625,0.02942,0.078865,0.996171,-0.515294,0.048519,0.266879,0.455971,-0.105974,-0.069843,-0.168488,-0.098507,-0.130094,0.475672,-0.33202,-0.008208,0.074971,0.036755,0.115022,-0.016236,0.137344,-0.173697,0.961151,1.531457,0.171603,-0.408678,-0.127474,-0.089037,-0.109982,0.653341,-0.927617,0.167696,-0.11017
189,-1.092092,-0.034887,0.790406,0.022531,0.026484,0.083361,0.995913,-0.485628,0.066765,0.239026,0.592761,-0.136255,-0.051638,-0.186664,-0.099668,-0.139297,0.459271,-0.295499,-0.010717,0.077512,0.038491,0.113436,0.021195,0.132878,-0.145167,0.962335,1.541756,0.135425,-0.476944,-0.074873,-0.077043,-0.120059,0.646772,-0.918295,0.172862,-0.126117
190,-1.112835,-0.037438,0.792003,0.020839,0.022691,0.08601,0.995818,-0.438991,0.070909,0.188711,0.698383,-0.161632,-0.054651,-0.206028,-0.098698,-0.144687,0.449983,-0.263518,-0.013583,0.082264,0.040204,0.110489,0.07336,0.120766,-0.058186,0.932458,1.497304,0.13307,-0.501057,-0.019586,-0.060565,-0.135098,0.647701,-0.897774,0.180663,-0.135241
191,-1.13304,-0.04007,0.79253,0.017606,0.019547,0.087374,0.995828,-0.375777,0.074948,0.14107,0.765217,-0.176223,-0.067361,-0.227929,-0.093487,-0.148993,0.443711,-0.232497,-0.017918,0.085372,0.042393,0.106207,0.130791,0.100668,0.054227,0.890101,1.421789,0.151649,-0.478205,0.032356,-0.043807,-0.14899,0.66005,-0.875746,0.200535,-0.131089
192,-1.153025,-0.042735,0.792068,0.012808,0.016268,0.089112,0.995806,-0.299145,0.077493,0.094025,0.79425,-0.183184,-0.086379,-0.250182,-0.085439,-0.154892,0.439915,-0.202705,-0.022654,0.085204,0.044595,0.101034,0.185037,0.076859,0.161567,0.848308,1.340855,0.170949,-0.416864,0.077478,-0.030058,-0.162811,0.686671,-0.857699,0.232101,-0.121805
193,-1.173143,-0.045266,0.790788,0.007878,0.014034,0.091965,0.995632,-0.219535,0.063135,0.028486,0.793509,-0.185507,-0.105689,-0.276801,-0.079525,-0.162581,0.441558,-0.175251,-0.026084,0.081765,0.045418,0.095939,0.228853,0.048095,0.245614,0.810728,1.274119,0.189347,-0.331861,0.112977,-0.020776,-0.176266,0.728115,-0.842666,0.273834,-0.105548
194,-1.193593,-0.047559,0.789112,0.004458,0.012938,0.097752,0.995117,-0.138182,0.024916,-0.062484,0.768721,-0.187225,-0.135369,-0.305756,-0.080797,-0.173358,0.445091,-0.148773,-0.027316,0.075152,0.043871,0.091177,0.257998,0.024597,0.295453,0.783917,1.236024,0.209547,-0.237233,0.144779,-0.011735,-0.204746,0.772352,-0.822503,0.318899,-0.083507
195,-1.214565,-0.049579,0.78743,0.002683,0.013144,0.108416,0.994015,-0.056806,-0.024,-0.166742,0.725046,-0.170756,-0.164201,-0.335915,-0.09158,-0.189581,0.44795,-0.121328,-0.027774,0.065699,0.039845,0.087308,0.269796,0.007784,0.306904,0.769789,1.232409,0.241829,-0.164799,0.175865,-0.003573,-0.233013,0.814989,-0.810474,0.358217,-0.059613
196,-1.236233,-0.051173,0.785851,0.001661,0.014021,0.122955,0.992312,0.021152,-0.059601,-0.254172,0.661544,-0.150137,-0.169928,-0.3674,-0.110845,-0.210315,0.451247,-0.091992,-0.026512,0.054316,0.033488,0.085825,0.25387,0.004501,0.292068,0.775585,1.254496,0.276246,-0.122163,0.217984,-0.009413,-0.249413,0.843538,-0.817027,0.368656,-0.020735
197,-1.258486,-0.052465,0.784913,0.002096,0.014542,0.139688,0.990087,0.080187,-0.060378,-0.280581,0.575175,-0.133338,-0.118402,-0.395178,-0.137001,-0.232674,0.449363,-0.05826,-0.023697,0.041676,0.024797,0.088234,0.215385,0.000733,0.25954,0.793111,1.288649,0.301538,-0.099206,0.255195,-0.011925,-0.235932,0.859739,-0.845472,0.37278,0.016507
198,-1.281363,-0.053491,0.784809,0.003487,0.015081,0.157434,0.987408,0.115889,-0.047704,-0.264475,0.459829,-0.14767,-0.025064,-0.413186,-0.166056,-0.256329,0.428319,-0.013287,-0.022696,0.029805,0.014381,0.094542,0.165442,0.001754,0.216118,0.815469,1.329702,0.30336,-0.085006,0.291782,-0.016788,-0.208408,0.864052,-0.882431,0.347299,0.056234
199,-1.304885,-0.054195,0.784308,0.005895,0.014059,0.17416,0.984599,0.125728,-0.044138,-0.246672,0.377525,-0.191056,0.010606,-0.416057,-0.194063,-0.279845,0.381336,0.043003,-0.023599,0.019928,0.002747,0.103568,0.108485,0.001107,0.172133,0.839057,1.37012,0.295102,-0.060247,0.322356,-0.024601,-0.184771,0.860762,-0.915965,0.306416,0.094329
200,-1.328777,-0.054754,0.782716,0.009651,0.012435,0.187724,0.982096,0.120333,-0.055961,-0.254141,0.328006,-0.23262,0.018428,-0.41004,-0.219133,-0.299323,0.318147,0.091224,-0.022642,0.013425,-0.010517,0.112603,0.050922,-0.006106,0.134505,0.857476,1.399494,0.282823,-0.030764,0.342237,-0.03555,-0.17701,0.854005,-0.94029,0.270502,0.130312
201,-1.35244,-0.055332,0.781562,0.012354,0.009741,0.196826,0.980312,0.107413,-0.070067,-0.264729,0.294487,-0.258831,0.021654,-0.403722,-0.237186,-0.31421,0.253059,0.081684,-0.001871,0.009642,-0.025324,0.120657,-0.000643,-0.015065,0.10802,0.863492,1.413249,0.272414,-0.003919,0.348468,-0.044505,-0.185541,0.844995,-0.953391,0.248121,0.152648
202,-1.374926,-0.055961,0.784556,0.015051,0.005039,0.200326,0.979601,0.095678,-0.084327,-0.268685,0.276777,-0.264155,0.027572,-0.395557,-0.250139,-0.327747,0.204862,0.02463,0.018219,0.009503,-0.039878,0.127959,-0.040308,-0.025829,0.096362,0.854206,1.402429,0.25555,0.019698,0.341648,-0.055985,-0.197616,0.838794,-0.965484,0.242401,0.163262
203,-1.396653,-0.05664,0.78674,0.018473,-0.00153,0.196659,0.980297,0.083871,-0.098765,-0.257967,0.271951,-0.251764,0.034497,-0.391449,-0.266883,-0.355115,0.198064,-0.031104,0.031094,0.01362,-0.053826,0.135525,-0.065546,-0.036868,0.099823,0.831242,1.361581,0.230149,0.035436,0.319238,-0.073233,-0.202207,0.838467,-0.984059,0.242708,0.160193
204,-1.418105,-0.057278,0.789115,0.019985,-0.009598,0.18615,0.982271,0.07309,-0.107393,-0.23581,0.268534,-0.227642,0.039833,-0.386235,-0.280931,-0.388356,0.241208,-0.024046,0.032271,0.019377,-0.066087,0.141513,-0.07275,-0.039301,0.105582,0.801852,1.306135,0.201309,0.039592,0.280385,-0.092071,-0.188729,0.845945,-1.016523,0.243694,0.154366
205,-1.438984,-0.057962,0.791011,0.020916,-0.018819,0.173051,0.984511,0.058556,-0.113316,-0.208019,0.278357,-0.206601,0.043526,-0.394634,-0.29484,-0.388446,0.361446,-0.038152,0.017036,0.022289,-0.07488,0.145856,-0.067126,-0.031792,0.100702,0.767821,1.258444,0.176245,0.044598,0.230165,-0.106908,-0.173207,0.851997,-1.045328,0.249351,0.144637
206,-1.459345,-0.058784,0.792083,0.021297,-0.027777,0.161826,0.986198,0.03822,-0.11759,-0.18282,0.298618,-0.192805,0.047011,-0.409104,-0.30593,-0.365116,0.525722,-0.056967,-0.010038,0.022028,-0.081307,0.148778,-0.054874,-0.015368,0.082717,0.735645,1.230152,0.16425,0.043669,0.177313,-0.11351,-0.159356,0.848275,-1.061707,0.247626,0.132158
207,-1.47931,-0.059628,0.792253,0.02281,-0.035325,0.153001,0.987331,0.014184,-0.124137,-0.16098,0.321194,-0.180423,0.050568,-0.422327,-0.317909,-0.33467,0.704273,-0.077356,-0.022098,0.020696,-0.086989,0.151149,-0.040243,0.00316,0.056757,0.706186,1.214275,0.154964,0.037838,0.130299,-0.114069,-0.150292,0.831061,-1.058116,0.236682,0.120016
208,-1.498918,-0.060477,0.791769,0.025042,-0.041234,0.146947,0.987967,-0.00973,-0.132126,-0.14373,0.337495,-0.165414,0.053862,-0.42537,-0.329467,-0.30778,0.871649,-0.091374,-0.027125,0.020973,-0.093015,0.153326,-0.027233,0.019284,0.032224,0.682505,1.20031,0.146963,0.031807,0.093252,-0.107712,-0.146608,0.798763,-1.030258,0.216858,0.096155
209,-1.518376,-0.061416,0.790799,0.027626,-0.045667,0.142767,0.988316,-0.033568,-0.1407,-0.129758,0.346768,-0.145941,0.056957,-0.412523,-0.338764,-0.2885,1.016704,-0.106215,-0.022142,0.023569,-0.099454,0.155461,-0.019163,0.0341,0.011168,0.672559,1.189997,0.145961,0.025448,0.064792,-0.097127,-0.137161,0.761665,-0.991629,0.193566,0.061293
210,-1.53776,-0.06247,0.789315,0.031087,-0.049624,0.139525,0.988486,-0.05691,-0.150644,-0.117109,0.352743,-0.12369,0.05999,-0.385253,-0.340918,-0.27195,1.135059,-0.113536,-0.025365,0.02875,-0.105674,0.156727,-0.015295,0.045551,-0.005125,0.680923,1.179424,0.151203,0.017668,0.041569,-0.086107,-0.116055,0.732398,-0.951558,0.168484,0.026994
211,-1.557205,-0.063597,0.787429,0.034488,-0.052768,0.136108,0.988686,-0.081647,-0.159976,-0.103908,0.356978,-0.098928,0.062905,-0.340631,-0.332958,-0.261339,1.214117,-0.121942,-0.02049,0.03709,-0.1107,0.156656,-0.015024,0.056305,-0.020394,0.706571,1.179183,0.172229,0.008036,0.019101,-0.07248,-0.08767,0.716053,-0.909731,0.149609,0.010624
212,-1.576879,-0.064909,0.78505,0.037992,-0.054623,0.132791,0.988908,-0.111779,-0.169021,-0.08975,0.364374,-0.073402,0.065436,-0.283182,-0.316593,-0.256625,1.252086,-0.124665,-0.008757,0.047567,-0.11354,0.155366,-0.020444,0.058161,-0.037146,0.74237,1.187998,0.207843,-0.012585,-0.00285,-0.060657,-0.050707,0.70513,-0.879902,0.144171,0.008134
213,-1.596896,-0.066317,0.782329,0.04073,-0.05461,0.129249,0.989269,-0.147167,-0.176311,-0.07482,0.372281,-0.046505,0.067988,-0.215561,-0.292496,-0.258407,1.242983,-0.134701,0.016299,0.059662,-0.113563,0.152394,-0.010983,0.07204,-0.04673,0.770899,1.206529,0.229901,-0.037683,-0.041495,-0.054376,-0.010526,0.710324,-0.85869,0.143919,0.027242
214,-1.617313,-0.067881,0.779328,0.042371,-0.052875,0.126181,0.98969,-0.188335,-0.181617,-0.060568,0.383139,-0.020125,0.070496,-0.143053,-0.257882,-0.259235,1.189696,-0.136535,0.046195,0.072965,-0.110537,0.149301,-0.015467,0.077214,-0.050317,0.792566,1.235754,0.257746,-0.079477,-0.080218,-0.05036,0.044009,0.725819,-0.858157,0.138434,0.048116
215,-1.63832,-0.069747,0.776136,0.043472,-0.049885,0.124443,0.990018,-0.235775,-0.186544,-0.048044,0.39969,0.004681,0.072871,-0.069742,-0.215443,-0.25437,1.097589,-0.135228,0.074429,0.0876,-0.104512,0.147993,-0.00537,0.076331,-0.04419,0.794621,1.25865,0.272875,-0.108372,-0.119126,-0.046558,0.105689,0.741457,-0.874705,0.132996,0.06701
216,-1.660178,-0.072023,0.773295,0.044915,-0.044478,0.124952,0.990147,-0.29079,-0.193792,-0.037835,0.418249,0.033052,0.075188,0.003356,-0.178445,-0.252152,0.967886,-0.150949,0.100933,0.103006,-0.09606,0.148923,0.025686,0.071612,-0.040409,0.763925,1.277024,0.280623,-0.121293,-0.15402,-0.042808,0.164023,0.751191,-0.896441,0.127558,0.067462
217,-1.682921,-0.074721,0.771536,0.045804,-0.037603,0.12813,0.989985,-0.34549,-0.202159,-0.031986,0.426718,0.070528,0.078253,0.069543,-0.149328,-0.26119,0.796802,-0.234917,0.05582,0.117931,-0.086058,0.153584,0.057578,0.063791,-0.029117,0.725618,1.275116,0.274761,-0.111201,-0.181025,-0.040594,0.218814,0.756923,-0.915417,0.121775,0.060998
218,-1.706476,-0.077846,0.768682,0.043773,-0.02944,0.134084,0.989565,-0.393707,-0.207427,-0.033278,0.411196,0.119983,0.079431,0.10731,-0.12858,-0.289627,0.65126,-0.365176,0.008464,0.131569,-0.073019,0.162275,0.08628,0.054464,-0.009032,0.689581,1.245113,0.262427,-0.082738,-0.202301,-0.035196,0.26427,0.759028,-0.922864,0.110898,0.044164
219,-1.731227,-0.081417,0.764733,0.038055,-0.020436,0.142333,0.988876,-0.432172,-0.209304,-0.047743,0.366536,0.174621,0.061454,0.104121,-0.115442,-0.332724,0.564813,-0.45792,-0.006771,0.142828,-0.055422,0.17404,0.108619,0.046084,0.01053,0.670764,1.201529,0.251347,-0.055197,-0.219521,-0.027738,0.298071,0.767519,-0.920418,0.104218,0.020586
220,-1.756859,-0.085371,0.76338,0.033251,-0.011295,0.153366,0.987545,-0.462014,-0.210012,-0.059582,0.298101,0.181162,0.000612,0.062815,-0.113438,-0.363144,0.538698,-0.505721,-0.014204,0.148268,-0.034663,0.186115,0.128319,0.036464,0.022394,0.672921,1.170294,0.252332,-0.039437,-0.234672,-0.022152,0.320511,0.792149,-0.908766,0.104702,0.001655
221,-1.78237,-0.088765,0.76817,0.029382,-0.003507,0.165713,0.98573,-0.477439,-0.200973,-0.038823,0.220696,0.115383,-0.033882,-0.002162,-0.124122,-0.379991,0.563078,-0.498098,-0.022003,0.147483,-0.011311,0.197191,0.147915,0.022304,0.025767,0.688495,1.163196,0.274108,-0.047987,-0.245801,-0.021502,0.333845,0.831786,-0.895304,0.11217,-0.002929
222,-1.806977,-0.091632,0.771384,0.0247,0.001065,0.179519,0.983444,-0.480739,-0.16877,0.056495,0.170393,0.042839,-0.109606,-0.063515,-0.138343,-0.399283,0.59654,-0.469716,-0.025344,0.141487,0.010125,0.205602,0.172488,0.007964,0.023755,0.705207,1.182005,0.301608,-0.073801,-0.249808,-0.025544,0.343089,0.87836,-0.895996,0.135269,0.018834
223,-1.830159,-0.093912,0.775643,0.021512,0.005989,0.193818,0.980783,-0.474991,-0.118702,0.217889,0.162738,0.023495,-0.154516,-0.102981,-0.150468,-0.421744,0.588587,-0.429546,-0.028357,0.132484,0.025341,0.210177,0.202568,-0.000673,0.014724,0.717612,1.219468,0.316473,-0.103405,-0.240075,-0.032255,0.339634,0.910957,-0.904371,0.157438,0.048637
224,-1.851762,-0.09551,0.781013,0.021372,0.010397,0.202441,0.979006,-0.462653,-0.081243,0.281821,0.19033,0.004294,-0.112775,-0.121632,-0.158826,-0.435356,0.544091,-0.383815,-0.030796,0.128734,0.031277,0.213577,0.23415,0.001543,0.006351,0.727701,1.251595,0.310762,-0.132421,-0.211096,-0.037454,0.31608,0.922117,-0.913776,0.187993,0.064403
225,-1.872209,-0.096414,0.78586,0.021668,0.012268,0.207496,0.977919,-0.459148,-0.049544,0.27875,0.277386,-0.026226,-0.08159,-0.134088,-0.165909,-0.442372,0.501142,-0.338335,-0.033214,0.12753,0.032832,0.217261,0.263476,0.022707,-0.004728,0.740684,1.280793,0.282809,-0.168937,-0.165144,-0.039615,0.278762,0.913704,-0.91433,0.206921,0.062639
226,-1.891823,-0.096643,0.789418,0.022059,0.012784,0.209312,0.977517,-0.461512,-0.028308,0.226006,0.402258,-0.063971,-0.065116,-0.149389,-0.174821,-0.443521,0.472602,-0.299615,-0.034594,0.127867,0.032983,0.220613,0.291451,0.051813,0.002771,0.751379,1.293196,0.25285,-0.20206,-0.112215,-0.041402,0.232637,0.895282,-0.899965,0.208538,0.050406
227,-1.910898,-0.096456,0.791695,0.020607,0.013039,0.206478,0.978147,-0.456308,-0.007853,0.160285,0.5279,-0.101072,-0.06501,-0.169774,-0.178362,-0.43724,0.451021,-0.263236,-0.036854,0.128101,0.033028,0.221874,0.319166,0.080088,0.030744,0.759004,1.288083,0.233354,-0.227351,-0.060991,-0.046181,0.188994,0.879422,-0.875747,0.195745,0.039104
228,-1.929561,-0.09603,0.792933,0.016709,0.013466,0.200588,0.979441,-0.43263,0.025569,0.12042,0.628039,-0.1334,-0.067871,-0.191922,-0.173998,-0.427054,0.428407,-0.225788,-0.038822,0.125893,0.033949,0.219816,0.345341,0.107702,0.059609,0.768295,1.285814,0.231292,-0.246828,-0.017135,-0.056448,0.156086,0.872224,-0.853168,0.18533,0.039116
229,-1.947953,-0.095442,0.793215,0.00994,0.013666,0.19249,0.981153,-0.393672,0.065466,0.090474,0.699251,-0.159427,-0.072813,-0.213819,-0.161191,-0.41566,0.403811,-0.186878,-0.039804,0.121666,0.03558,0.215229,0.367546,0.134022,0.074844,0.778498,1.298377,0.239162,-0.247339,0.01564,-0.074325,0.140508,0.872276,-0.847562,0.18394,0.040918
230,-1.96637,-0.09475,0.792764,0.001398,0.014557,0.184023,0.982813,-0.345878,0.095974,0.05233,0.740914,-0.180929,-0.094054,-0.236249,-0.143882,-0.405649,0.376781,-0.145789,-0.040362,0.115211,0.037755,0.209122,0.382818,0.155459,0.075564,0.791746,1.32179,0.251446,-0.234842,0.039073,-0.098053,0.135743,0.876399,-0.860811,0.19727,0.03718
231,-1.985026,-0.093869,0.791827,-0.007923,0.016473,0.175737,0.984267,-0.288368,0.102222,-0.004712,0.748798,-0.196035,-0.115169,-0.259818,-0.125173,-0.397317,0.347519,-0.102101,-0.041239,0.105935,0.039792,0.201852,0.388951,0.170078,0.064512,0.807958,1.348192,0.259413,-0.2237,0.057827,-0.122968,0.128786,0.880187,-0.878539,0.214611,0.034344
232,-2.003979,-0.092689,0.790507,-0.017805,0.018885,0.167912,0.98546,-0.222001,0.086935,-0.074815,0.724971,-0.201866,-0.12247,-0.284589,-0.106179,-0.390123,0.318376,-0.056803,-0.043337,0.093738,0.040944,0.194323,0.386489,0.179556,0.046539,0.824901,1.375236,0.263568,-0.222247,0.07408,-0.144822,0.109264,0.879759,-0.891612,0.235984,0.028492
233,-2.02323,-0.091313,0.788583,-0.026841,0.02196,0.159431,0.9866,-0.155812,0.074476,-0.124347,0.659019,-0.232008,-0.086879,-0.308038,-0.086833,-0.381554,0.281972,-0.006795,-0.046565,0.078837,0.04041,0.187922,0.372438,0.18223,0.026773,0.83869,1.395427,0.260096,-0.227189,0.086496,-0.161445,0.071362,0.871772,-0.889712,0.254462,0.020515
234,-2.042256,-0.089515,0.78663,-0.031536,0.026272,0.149914,0.987847,-0.108908,0.076565,-0.124069,0.538033,-0.298507,-0.06547,-0.326669,-0.071969,-0.368451,0.230415,0.051385,-0.050712,0.062469,0.036595,0.184653,0.343595,0.17247,0.00954,0.84978,1.404216,0.245781,-0.23721,0.094989,-0.176074,0.014785,0.851881,-0.869975,0.270078,0.006985
235,-2.062339,-0.087609,0.783369,-0.032319,0.031765,0.139303,0.989212,-0.103755,0.076633,-0.085806,0.462539,-0.330716,-0.047191,-0.35436,-0.067203,-0.349944,0.190809,0.098797,-0.042329,0.047097,0.028387,0.186583,0.297419,0.159318,-0.004154,0.856288,1.406611,0.227706,-0.237978,0.101693,-0.184726,-0.054352,0.816729,-0.836925,0.281247,-0.013754
236,-2.081692,-0.085599,0.78277,-0.028903,0.038458,0.127062,0.990727,-0.123075,0.064133,-0.053474,0.431041,-0.328614,-0.028439,-0.395069,-0.072501,-0.325142,0.180524,0.107418,-0.028371,0.038353,0.014466,0.190794,0.236811,0.147227,-0.01241,0.859901,1.409438,0.221628,-0.233809,0.111631,-0.180708,-0.12859,0.767708,-0.792547,0.283005,-0.037278
237,-2.10032,-0.083867,0.788263,-0.023378,0.043124,0.115267,0.992123,-0.148933,0.047751,-0.028172,0.419212,-0.30504,-0.017714,-0.444917,-0.084762,-0.30909,0.193944,0.057778,-0.015366,0.036534,-0.004011,0.195008,0.170172,0.141129,-0.015857,0.856576,1.413953,0.216997,-0.218101,0.129414,-0.158699,-0.193749,0.718744,-0.743501,0.279076,-0.052052
238,-2.117128,-0.082575,0.790777,-0.019186,0.044262,0.103815,0.993426,-0.166804,0.038145,-0.0039,0.408756,-0.282213,-0.013124,-0.473053,-0.098036,-0.321967,0.235633,0.027586,0.003367,0.038272,-0.022077,0.197408,0.104647,0.142967,-0.010904,0.854888,1.42638,0.223398,-0.185369,0.152634,-0.123739,-0.229691,0.682374,-0.710364,0.282141,-0.057952
239,-2.131986,-0.081664,0.792469,-0.017937,0.042085,0.094398,0.994483,-0.17619,0.035914,0.013643,0.397628,-0.262418,-0.015133,-0.485174,-0.104929,-0.328927,0.297643,0.021212,0.006767,0.039019,-0.035032,0.197196,0.04629,0.141289,0.004796,0.843564,1.430002,0.237684,-0.14992,0.174029,-0.09632,-0.230126,0.667042,-0.704218,0.279592,-0.03862
240,-2.144844,-0.081104,0.793348,-0.018283,0.03817,0.087981,0.995223,-0.183065,0.038451,0.025718,0.393652,-0.253244,-0.028066,-0.489623,-0.097157,-0.289449,0.373929,-0.006152,-0.013729,0.035136,-0.043241,0.19479,-0.003415,0.132235,0.028832,0.821583,1.418581,0.256023,-0.112187,0.191857,-0.092264,-0.190502,0.67141,-0.747702,0.279554,0.004593
241,-2.155792,-0.080748,0.793411,-0.017994,0.033024,0.084024,0.995754,-0.188482,0.040905,0.034081,0.397261,-0.25302,-0.055088,-0.483626,-0.089078,-0.248957,0.458675,-0.043145,-0.025577,0.029572,-0.050278,0.190366,-0.045802,0.11753,0.0542,0.792629,1.389378,0.26608,-0.07604,0.205745,-0.101303,-0.140006,0.68083,-0.817045,0.274244,0.051559
242,-2.164938,-0.080312,0.793028,-0.01602,0.026741,0.081355,0.996198,-0.190218,0.039752,0.041209,0.403572,-0.253964,-0.076899,-0.463763,-0.089257,-0.226991,0.539982,-0.077746,-0.0275,0.023585,-0.056849,0.184424,-0.082326,0.10043,0.077623,0.761622,1.338169,0.260645,-0.046746,0.21676,-0.111173,-0.103371,0.692437,-0.881374,0.261,0.092376
243,-2.172598,-0.079486,0.792515,-0.011723,0.020893,0.079552,0.996543,-0.190993,0.031046,0.048033,0.409718,-0.248844,-0.075958,-0.432007,-0.100268,-0.219895,0.607171,-0.119427,-0.028186,0.017859,-0.06259,0.176665,-0.113962,0.086871,0.089603,0.734435,1.276811,0.239143,-0.02591,0.228248,-0.114066,-0.09857,0.705267,-0.915973,0.247949,0.119913
244,-2.178777,-0.078463,0.792063,-0.006181,0.015163,0.078665,0.996767,-0.187969,0.018328,0.053845,0.412245,-0.241888,-0.068534,-0.384958,-0.117577,-0.227105,0.646329,-0.15673,-0.030832,0.014372,-0.067373,0.167406,-0.141824,0.081063,0.085427,0.714927,1.221333,0.213484,-0.01954,0.23938,-0.107994,-0.121943,0.719743,-0.917958,0.243135,0.133027
245,-2.18368,-0.077383,0.791851,-0.00066,0.010739,0.078007,0.996895,-0.184536,0.005311,0.059095,0.412159,-0.234901,-0.06259,-0.325338,-0.133015,-0.243247,0.648083,-0.186103,-0.036287,0.013893,-0.07067,0.157109,-0.165342,0.083787,0.065564,0.698499,1.186124,0.191211,-0.021212,0.248838,-0.099649,-0.155,0.734966,-0.908239,0.245585,0.138339
246,-2.187347,-0.076302,0.792032,0.004365,0.006906,0.076726,0.997019,-0.176712,-0.005843,0.065491,0.404597,-0.227352,-0.06206,-0.251115,-0.135014,-0.256488,0.598793,-0.193269,-0.02358,0.015798,-0.072323,0.144572,-0.180319,0.088916,0.03922,0.682308,1.170877,0.182834,-0.021708,0.256086,-0.092621,-0.184376,0.750478,-0.902185,0.251172,0.138889
247,-2.189842,-0.075231,0.791641,0.00866,0.004562,0.073586,0.997241,-0.1643,-0.014531,0.074974,0.38584,-0.216481,-0.058497,-0.16668,-0.12965,-0.275429,0.486715,-0.22839,-0.002623,0.021025,-0.071883,0.128928,-0.184944,0.092114,0.0123,0.66378,1.169013,0.184229,-0.025625,0.25972,-0.089068,-0.203125,0.763659,-0.907139,0.254955,0.135469
248,-2.191071,-0.074138,0.792022,0.009765,0.002871,0.068333,0.997611,-0.144826,-0.016084,0.086072,0.354357,-0.201763,-0.05351,-0.08921,-0.113738,-0.287029,0.339426,-0.226987,0.0086,0.028363,-0.068456,0.112114,-0.177936,0.093947,-0.006166,0.640348,1.165342,0.184503,-0.026699,0.257864,-0.085953,-0.209409,0.774742,-0.922757,0.259102,0.128868
249,-2.19166,-0.073468,0.794074,0.009304,0.000334,0.060112,0.998148,-0.125675,-0.011351,0.101086,0.330745,-0.192695,-0.049788,-0.032921,-0.093306,-0.279925,0.223985,-0.180927,0.00499,0.035078,-0.062027,0.097671,-0.157761,0.094116,-0.010781,0.614851,1.155526,0.184427,-0.019772,0.248541,-0.083075,-0.203772,0.785719,-0.94339,0.258383,0.122771
250,-2.192114,-0.073025,0.795631,0.009263,-0.002731,0.046193,0.998886,-0.105859,-0.003885,0.126201,0.311139,-0.187358,-0.044569,0.004288,-0.076845,-0.258449,0.145327,-0.137184,0.004264,0.040046,-0.052914,0.085488,-0.120904,0.086315,0.001832,0.590972,1.14033,0.19277,-0.003685,0.231034,-0.083396,-0.193196,0.794847,-0.965188,0.257377,0.115975
251,-2.192842,-0.072578,0.796356,0.009552,-0.004571,0.028745,0.999531,-0.09064,0.003694,0.158751,0.294598,-0.181067,-0.031364,0.004593,-0.069818,-0.225851,0.13584,-0.12501,0.0041,0.042874,-0.042786,0.076086,-0.07185,0.066853,0.028455,0.570252,1.116821,0.200932,0.015426,0.20704,-0.082865,-0.182471,0.794538,-0.978964,0.251283,0.113717
252,-2.193628,-0.072509,0.796562,0.009462,-0.006486,0.012241,0.999859,-0.078592,0.012128,0.190025,0.28238,-0.174007,-0.018194,-0.014712,-0.065252,-0.192397,0.168232,-0.133196,0.000679,0.043391,-0.033982,0.070181,-0.020953,0.042536,0.056692,0.561536,1.09024,0.205943,0.033894,0.185057,-0.080021,-0.172749,0.78117,-0.98557,0.24008,0.109414
253,-2.193973,-0.072901,0.796631,0.009776,-0.009421,-0.000808,0.999908,-0.065183,0.018799,0.215545,0.270574,-0.165215,-0.010915,-0.030107,-0.061024,-0.165631,0.202755,-0.145046,-0.003969,0.040955,-0.027527,0.066059,0.026089,0.022911,0.072746,0.576611,1.079634,0.21869,0.047358,0.171192,-0.07163,-0.169177,0.756867,-0.980769,0.227001,0.100571
254,-2.193776,-0.073448,0.796959,0.010209,-0.013296,-0.009187,0.999817,-0.048998,0.022049,0.233635,0.255154,-0.14691,0.004845,-0.033594,-0.05746,-0.148215,0.223349,-0.153973,-0.007246,0.035838,-0.023166,0.062499,0.059868,0.014808,0.070633,0.622433,1.089622,0.232886,0.04043,0.169383,-0.057169,-0.175557,0.722948,-0.960575,0.21021,0.091289
255,-2.19321,-0.073899,0.797448,0.010874,-0.017273,-0.014021,0.999693,-0.031401,0.021526,0.244994,0.236653,-0.127745,0.019901,-0.027927,-0.05574,-0.138345,0.229093,-0.157705,-0.008886,0.029652,-0.019636,0.058636,0.077046,0.02372,0.046193,0.699639,1.131823,0.250131,0.000105,0.177495,-0.038415,-0.18989,0.682741,-0.929219,0.192613,0.076744
256,-2.192418,-0.07428,0.797753,0.011649,-0.020632,-0.016515,0.999583,-0.016766,0.019998,0.251262,0.223333,-0.119635,0.019986,-0.01835,-0.055417,-0.133336,0.225775,-0.157903,-0.009362,0.023695,-0.01622,0.054294,0.079003,0.044884,0.003579,0.800419,1.204445,0.263196,-0.077049,0.19046,-0.019403,-0.205819,0.646672,-0.894891,0.176379,0.061846
257,-2.191599,-0.074739,0.797838,0.011877,-0.023272,-0.01857,0.999486,-0.007397,0.02066,0.255652,0.219356,-0.119124,0.019578,-0.0098,-0.053864,-0.129403,0.221075,-0.157388,-0.010023,0.018285,-0.012957,0.050116,0.076596,0.069685,-0.044252,0.899483,1.289705,0.262723,-0.174596,0.200689,-0.003381,-0.219816,0.625252,-0.862903,0.167665,0.05096
258,-2.190899,-0.075249,0.797731,0.011453,-0.024961,-0.021,0.999402,-0.003979,0.024017,0.259838,0.224089,-0.123178,0.018501,-0.005712,-0.050838,-0.125001,0.220349,-0.158216,-0.011048,0.013539,-0.009836,0.046604,0.084386,0.092748,-0.094852,0.964336,1.379961,0.246146,-0.281541,0.203354,0.003233,-0.234099,0.627986,-0.839394,0.158904,0.0424
259,-2.190317,-0.075774,0.79751,0.010427,-0.026038,-0.023996,0.999318,-0.003808,0.029435,0.264344,0.23311,-0.129094,0.017105,-0.005294,-0.046519,-0.120025,0.223623,-0.160384,-0.012404,0.009655,-0.006935,0.044333,0.102421,0.112869,-0.129442,0.98823,1.457962,0.21247,-0.364319,0.195084,0.007257,-0.24427,0.649436,-0.829927,0.164391,0.039146
260,-2.189834,-0.076295,0.797254,0.009344,-0.026915,-0.027195,0.999224,-0.003886,0.034978,0.268985,0.241647,-0.134694,0.015773,-0.007359,-0.04223,-0.114839,0.230345,-0.163458,-0.013855,0.007252,-0.003958,0.043216,0.135454,0.120829,-0.111632,0.971222,1.488781,0.194314,-0.391051,0.181153,0.009255,-0.255333,0.682267,-0.840665,0.182209,0.037529
261,-2.189365,-0.076813,0.797047,0.008348,-0.027615,-0.029725,0.999142,-0.002714,0.039511,0.272585,0.246334,-0.138276,0.014625,-0.010414,-0.038594,-0.110857,0.238685,-0.166727,-0.015284,0.006734,-0.001114,0.042802,0.170373,0.112589,-0.053308,0.939163,1.477055,0.19908,-0.372537,0.166335,0.010784,-0.259842,0.718328,-0.855699,0.210481,0.032659
262,-2.188878,-0.077399,0.796929,0.007626,-0.028091,-0.031029,0.999095,0.000064,0.042318,0.274141,0.245475,-0.138616,0.0136,-0.014124,-0.036083,-0.109138,0.248518,-0.170485,-0.016805,0.007881,0.001263,0.042656,0.205686,0.093467,0.029777,0.900681,1.430153,0.2121,-0.317343,0.155163,0.013036,-0.264719,0.754579,-0.871822,0.237985,0.029989
263,-2.188355,-0.078025,0.796903,0.007202,-0.028468,-0.030015,0.999118,0.003331,0.042906,0.271842,0.240827,-0.136212,0.013115,-0.016291,-0.035337,-0.111526,0.256926,-0.17442,-0.017848,0.010127,0.003028,0.042508,0.231725,0.071689,0.104423,0.867831,1.37714,0.222135,-0.261442,0.150851,0.016047,-0.269148,0.786945,-0.889592,0.261097,0.031481
264,-2.187759,-0.078733,0.796974,0.006871,-0.028593,-0.026451,0.999217,0.005748,0.042047,0.264973,0.234787,-0.132284,0.012959,-0.015574,-0.035799,-0.118687,0.260845,-0.177573,-0.018498,0.012789,0.003956,0.042468,0.244846,0.053885,0.157229,0.839864,1.334093,0.228895,-0.207359,0.152923,0.021495,-0.274989,0.811069,-0.904715,0.276709,0.038367
265,-2.187098,-0.079566,0.797154,0.006518,-0.028651,-0.02076,0.999353,0.007808,0.040404,0.254101,0.22781,-0.127338,0.012726,-0.011179,-0.036747,-0.130031,0.258707,-0.17858,-0.019085,0.015504,0.003854,0.042234,0.251023,0.042093,0.184408,0.813619,1.310224,0.2401,-0.168128,0.158675,0.03292,-0.282107,0.827664,-0.914459,0.285079,0.042104
266,-2.186415,-0.080502,0.797394,0.00639,-0.028816,-0.013388,0.999475,0.009559,0.037734,0.240107,0.220854,-0.121955,0.012349,-0.004048,-0.03855,-0.144624,0.252537,-0.178089,-0.019504,0.018135,0.003102,0.041645,0.244893,0.036316,0.189554,0.798807,1.304929,0.251627,-0.144865,0.172137,0.043632,-0.289889,0.832612,-0.918698,0.280153,0.046718
267,-2.185762,-0.08152,0.797636,0.006639,-0.028894,-0.005,0.999548,0.010176,0.034079,0.224263,0.215128,-0.116818,0.012064,0.003828,-0.04133,-0.161106,0.244896,-0.176998,-0.019702,0.020433,0.002146,0.040835,0.226524,0.036619,0.184357,0.800318,1.310054,0.257358,-0.135545,0.194822,0.049484,-0.299735,0.826598,-0.91712,0.264459,0.055654
268,-2.18517,-0.082646,0.79784,0.007055,-0.028874,0.00342,0.999552,0.00988,0.030387,0.208246,0.210785,-0.112213,0.011673,0.010822,-0.044229,-0.177707,0.238208,-0.17615,-0.020005,0.02221,0.000959,0.039885,0.200951,0.033103,0.173949,0.807796,1.319949,0.261107,-0.133509,0.20972,0.060965,-0.3062,0.818598,-0.916597,0.258918,0.060766
269,-2.184592,-0.083913,0.798002,0.007571,-0.02884,0.011039,0.999494,0.009959,0.02709,0.193557,0.206424,-0.107816,0.010948,0.016303,-0.046791,-0.192872,0.233894,-0.176286,-0.020582,0.023488,-0.000524,0.038848,0.175106,0.02657,0.16372,0.814663,1.327294,0.261478,-0.136453,0.221042,0.070515,-0.307979,0.813994,-0.919176,0.255422,0.064321
270,-2.184002,-0.085363,0.798143,0.008185,-0.028825,0.017676,0.999395,0.011146,0.02433,0.180676,0.200776,-0.103028,0.009728,0.020823,-0.048748,-0.20615,0.231013,-0.177071,-0.021568,0.024344,-0.002352,0.037858,0.151144,0.017501,0.152082,0.819735,1.333149,0.258734,-0.140199,0.225642,0.076066,-0.30199,0.814345,-0.927454,0.254418,0.068694
271,-2.183418,-0.087005,0.798268,0.008936,-0.028891,0.023083,0.999276,0.013355,0.022223,0.170095,0.194268,-0.09803,0.007999,0.024633,-0.050062,-0.217093,0.22905,-0.178202,-0.022986,0.024677,-0.004457,0.037067,0.131145,0.004123,0.143643,0.819485,1.330724,0.25374,-0.138671,0.223308,0.075939,-0.286356,0.817778,-0.943857,0.255725,0.072959
272,-2.182876,-0.08881,0.798379,0.009639,-0.02893,0.027222,0.999164,0.015711,0.021147,0.161816,0.18802,-0.093294,0.005824,0.027708,-0.050397,-0.225682,0.227248,-0.179123,-0.024865,0.024551,-0.006794,0.036549,0.114162,-0.016905,0.149075,0.813752,1.304103,0.251713,-0.135273,0.21642,0.071027,-0.262868,0.82112,-0.964863,0.253648,0.075908
273,-2.182376,-0.090752,0.798473,0.010332,-0.028829,0.030271,0.999072,0.01738,0.020901,0.155539,0.183201,-0.089411,0.003373,0.030086,-0.049991,-0.232203,0.225105,-0.179552,-0.027042,0.024293,-0.009138,0.036261,0.098557,-0.048818,0.178403,0.804347,1.237841,0.266768,-0.138686,0.207549,0.062321,-0.234222,0.823501,-0.98728,0.246296,0.08062
274,-2.181873,-0.092868,0.798561,0.010982,-0.028522,0.032465,0.999005,0.018496,0.021507,0.150847,0.179292,-0.086185,0.000532,0.032256,-0.04867,-0.237127,0.221763,-0.179288,-0.02959,0.024077,-0.011414,0.036,0.083843,-0.084646,0.216429,0.790133,1.145207,0.292528,-0.143117,0.196592,0.050642,-0.203175,0.82409,-1.011757,0.23805,0.08442
275,-2.181345,-0.0952,0.798649,0.011557,-0.02811,0.033922,0.998962,0.019433,0.023072,0.147512,0.175917,-0.083426,-0.002838,0.034732,-0.046226,-0.240686,0.216738,-0.178165,-0.032793,0.023988,-0.013529,0.035559,0.072722,-0.110475,0.232111,0.774343,1.065218,0.308845,-0.138141,0.184392,0.03992,-0.176635,0.821658,-1.031186,0.230814,0.086636
276,-2.180779,-0.097746,0.798732,0.012107,-0.027647,0.034309,0.998955,0.020858,0.025512,0.146056,0.172204,-0.080811,-0.006716,0.037451,-0.042733,-0.242399,0.21031,-0.176423,-0.03656,0.02406,-0.01529,0.034969,0.067385,-0.121785,0.216635,0.763032,1.018143,0.312238,-0.123716,0.17286,0.034167,-0.16221,0.814434,-1.035098,0.225303,0.090708
277,-2.180175,-0.100492,0.798797,0.012672,-0.027107,0.033796,0.998981,0.022859,0.028546,0.14628,0.167708,-0.078049,-0.010946,0.040057,-0.038532,-0.242421,0.203334,-0.174664,-0.040713,0.024387,-0.016664,0.034283,0.065975,-0.117633,0.167523,0.75961,1.016593,0.306379,-0.09884,0.162282,0.032534,-0.157397,0.802813,-1.025452,0.220677,0.090617
278,-2.179555,-0.103484,0.798822,0.013216,-0.026575,0.032917,0.999017,0.024803,0.032233,0.147234,0.163379,-0.075205,-0.015597,0.042202,-0.033792,-0.241647,0.197271,-0.173477,-0.045351,0.024807,-0.017824,0.03367,0.065559,-0.102836,0.097103,0.764366,1.049302,0.289569,-0.074962,0.152794,0.032911,-0.157241,0.788888,-1.007059,0.215332,0.084011
279,-2.178897,-0.106738,0.798795,0.013703,-0.026155,0.031846,0.999057,0.026431,0.036634,0.148419,0.160154,-0.072724,-0.020686,0.044163,-0.02854,-0.240526,0.192339,-0.172868,-0.050467,0.024848,-0.018923,0.033192,0.063884,-0.082264,0.019728,0.776402,1.102118,0.271005,-0.060291,0.144487,0.033072,-0.155089,0.775973,-0.988286,0.210574,0.074668
280,-2.178197,-0.110271,0.7987,0.014151,-0.025841,0.031059,0.999083,0.027633,0.041582,0.149017,0.158059,-0.07071,-0.026232,0.04571,-0.022996,-0.239868,0.189125,-0.173161,-0.056075,0.024478,-0.020087,0.032966,0.060402,-0.062319,-0.047953,0.793381,1.153077,0.254797,-0.066387,0.137323,0.031896,-0.148406,0.765076,-0.973583,0.206025,0.064925
281,-2.177468,-0.114066,0.798522,0.014718,-0.025666,0.030585,0.999094,0.028675,0.046619,0.148937,0.15673,-0.069014,-0.032115,0.046205,-0.017739,-0.23976,0.188946,-0.175049,-0.062037,0.023832,-0.021284,0.032958,0.055033,-0.045877,-0.100364,0.810843,1.19229,0.239272,-0.085622,0.131429,0.030126,-0.138855,0.755683,-0.962607,0.203578,0.058409
282,-2.176703,-0.118124,0.798262,0.015408,-0.02559,0.030541,0.999087,0.029579,0.051674,0.147994,0.15592,-0.067506,-0.038336,0.045823,-0.01275,-0.240408,0.191261,-0.178321,-0.068339,0.023193,-0.022521,0.033107,0.05034,-0.037261,-0.127854,0.82596,1.207304,0.228612,-0.105,0.127089,0.028229,-0.127992,0.746741,-0.954083,0.201747,0.052645
283,-2.175889,-0.122456,0.79793,0.016168,-0.025565,0.030766,0.999069,0.030406,0.056925,0.146373,0.155426,-0.066098,-0.044981,0.045012,-0.007679,-0.241598,0.194831,-0.182374,-0.075058,0.022675,-0.023885,0.033384,0.049216,-0.036688,-0.12303,0.832263,1.190728,0.229903,-0.114416,0.124293,0.026991,-0.116483,0.74029,-0.946479,0.200197,0.048309
284,-2.175015,-0.127058,0.797533,0.016981,-0.025581,0.031317,0.999038,0.031246,0.062328,0.143979,0.155001,-0.064673,-0.052009,0.044141,-0.002415,-0.24332,0.198884,-0.186833,-0.082157,0.022456,-0.025447,0.033781,0.056656,-0.037721,-0.106955,0.823226,1.166473,0.241213,-0.109626,0.118021,0.029963,-0.102874,0.743782,-0.940047,0.201842,0.043052
285,-2.174066,-0.13194,0.797072,0.01786,-0.025672,0.032376,0.998986,0.03215,0.067827,0.140522,0.154522,-0.063121,-0.059448,0.043629,0.002952,-0.246142,0.202909,-0.191574,-0.08959,0.022722,-0.027227,0.034306,0.063763,-0.038891,-0.084127,0.812212,1.136226,0.252824,-0.095326,0.117226,0.029979,-0.09134,0.744878,-0.933867,0.202314,0.040668
286,-2.173037,-0.137102,0.796543,0.018926,-0.025863,0.033813,0.998914,0.033192,0.07317,0.136235,0.154032,-0.061484,-0.067181,0.04375,0.008217,-0.249833,0.206526,-0.19648,-0.097242,0.023416,-0.029017,0.034963,0.069755,-0.039668,-0.060151,0.804193,1.103849,0.266057,-0.086191,0.120851,0.029782,-0.082452,0.746587,-0.92702,0.200819,0.037088
287,-2.171957,-0.142588,0.795935,0.020137,-0.026176,0.035511,0.998823,0.034345,0.078621,0.131301,0.153573,-0.059692,-0.075375,0.044325,0.013685,-0.254028,0.209907,-0.201558,-0.105329,0.024377,-0.030852,0.035717,0.074091,-0.037056,-0.041551,0.800294,1.077136,0.27931,-0.081418,0.126591,0.028775,-0.074318,0.751789,-0.921698,0.201184,0.037065
288,-2.170853,-0.148385,0.795243,0.021505,-0.02652,0.0375,0.998713,0.03557,0.084036,0.125797,0.152741,-0.057517,-0.083908,0.044868,0.019155,-0.258725,0.213586,-0.206996,-0.113731,0.025603,-0.03279,0.036481,0.072389,-0.027567,-0.036021,0.806938,1.065646,0.287952,-0.075359,0.137619,0.02262,-0.067856,0.752783,-0.919729,0.204329,0.044825
289,-2.169751,-0.154539,0.794457,0.023034,-0.026794,0.039724,0.998586,0.036322,0.08954,0.119852,0.152101,-0.055115,-0.092835,0.045358,0.024747,-0.263867,0.21707,-0.212574,-0.122496,0.026868,-0.034747,0.037093,0.074075,-0.014169,-0.044575,0.81266,1.072714,0.291094,-0.067752,0.145029,0.019471,-0.060139,0.759312,-0.921842,0.212237,0.052674
290,-2.168672,-0.161145,0.793555,0.024664,-0.026916,0.042151,0.998444,0.036277,0.095559,0.113532,0.151945,-0.052564,-0.102444,0.045795,0.030903,-0.269491,0.219913,-0.218227,-0.131862,0.027941,-0.036737,0.037473,0.076871,0.001829,-0.060975,0.819291,1.092662,0.292166,-0.062045,0.151524,0.018405,-0.055693,0.768708,-0.922686,0.220421,0.057827
291,-2.16765,-0.168241,0.792525,0.026243,-0.026917,0.044688,0.998293,0.035769,0.102453,0.106939,0.151791,-0.049674,-0.112863,0.045808,0.037908,-0.275485,0.222837,-0.223759,-0.141942,0.028745,-0.038932,0.037694,0.080162,0.019915,-0.082501,0.828309,1.122552,0.290331,-0.060657,0.15731,0.01783,-0.05252,0.78061,-0.923716,0.227206,0.063738
